!!!COM: Scriabin, Alexander
!!!OTL@@FR: Poème Satanique
!!!OTL@@EN:
!!!OPS: 36
!!!ODT: 1903
!!!AGN: Poem
**kern	**kern	**dynam	**kern	**dynam
*staff3	*staff2	*staff2/3	*staff1	*staff1/2
*Ipiano	*Ipiano	*	*Ipiano	*
*clefF4	*clefF4	*	*clefG2	*
*k[]	*k[]	*	*k[]	*
*C:	*C:	*	*C:	*
*M6/8	*M6/8	*	*M6/8	*
=1	=1	=1	=1	=1
*	*	*	*^	*
*	*	*	*	*^	*
2.r	4DD 4D	.	4.b-X	2.e	4.G-X\	.
.	8CC#X 8C#X	.	.	.	.	.
.	4DD 4D	.	4.g-X	.	4.B-X\	.
.	8CC# 8C#	.	.	.	.	.
=2	=2	=2	=2	=2	=2	=2
2.r	8r	.	4.gn	8rc	2.B-X\	.
.	8DDL 8D	.	.	8eL	.	.
.	[8EE-XJ [8E-X	.	.	8e-XJ	.	.
.	8EE-L] 8E-]	.	4.g#X	8dL	.	.
.	8EEn 8En	.	.	8d-X	.	.
.	8CnJ 8cn	.	.	8cJ	.	.
*	*	*	*v	*v	*v	*
*	*clefG2	*	*	*
=3	=3	=3	=3	=3
2.r	[2.g#X [2.b-X [2.ee	.	4.r	.
.	.	.	8cccL	.
.	.	.	8bbn	.
.	.	.	8cccJ	.
=4	=4	=4	=4	=4
2.r	2.g#] 2.b-] 2.ee]	.	8ddd-XL	.
.	.	.	8.ggg#X	.
.	.	.	16fffJk	.
.	.	.	4.ccc	.
*	*clefF4	*	*	*
=5	=5	=5	=5	=5
*	*	*	*^	*
*	*	*	*	*^	*
2.r	4EE 4E	.	4.cc	2.g-X	4.G#X\	.
.	8DD#X 8D#X	.	.	.	.	.
.	4EE 4E	.	4.g#X	.	4.c\	.
.	8DD# 8D#	.	.	.	.	.
=6	=6	=6	=6	=6	=6	=6
2.r	8r	.	4.a	8rc	4.c\	.
.	8EEL 8E	.	.	8g-XL	.	.
.	8FFJ 8F	.	.	8fJ	.	.
.	8GG#XL 8G#X	.	4raa	8eL	4r	.
.	8AA 8A	.	.	8fJ	.	.
.	8CJ 8c	.	8raa	8rc	8r	.
*	*	*	*v	*v	*v	*
*	*clefG2	*	*	*
=7	=7	=7	=7	=7
2.r	[2.a 2.cc [2.ff	.	4r	.
.	.	.	8r	.
.	.	.	8cccL	.
.	.	.	8bb	.
.	.	.	8cccJ	.
=8	=8	=8	=8	=8
*	*^	*	*	*
2.r	2.a] 2.ff]	4.b	.	8ddd-XL	.
.	.	.	.	8.aaa	.
.	.	.	.	16ddd-Jk	.
.	.	4.cc	.	4.ccc	.
*	*v	*v	*	*	*
*	*clefF4	*	*	*
=9	=9	=9	=9	=9
2.r	4.AAA-X 4.AA-X	.	4.G-X 4.c 4.e 4.g-X	.
*	*clefG2	*	*	*
.	8eeL	.	8aa-XL	.
.	8cc 8ee	.	8gg	.
.	[8g-XJ [8cc [8ee	.	8aa-J	.
=10	=10	=10	=10	=10
2.r	4.g-] 4.cc] 4.ee]	.	8bb--L	.
.	.	.	8eee	.
.	.	.	8bb--J	.
*	*clefF4	*	*	*
.	8cL 8e	.	4aa-X	.
.	8A-X 8c 8e	.	.	.
*	*	*	*clefF4	*
.	8G-XJ 8c 8e	.	[8AA-X	.
=11	=11	=11	=11	=11
2.r	4.F 4.d-X 4.f	.	4.DD-X 4.AA-]	.
*	*clefG2	*	*clefG2	*
.	8dd-XL 8ff	.	8aa-XL	.
.	8b-- 8dd- 8ff	.	8gg	.
.	[8fJ [8dd- [8ff	.	8aa-J	.
=12	=12	=12	=12	=12
2.r	4.f] 4.dd-] 4.ff]	.	8bb--L	.
.	.	.	8fff	.
.	.	.	8bb--J	.
*	*clefF4	*	*	*
.	8d-XL 8f	.	4.aa-X	.
.	8A-X 8d- 8f	.	.	.
.	8FJ 8c 8f	.	.	.
*	*	*	*clefF4	*
=13	=13	=13	=13	=13
2.r	4.F 4.Bn 4.f	.	4.GG	.
*	*	*	*clefG2	*
.	8FL 8B 8f	.	8dd-XL 8ff 8aa-X	.
.	8e-X	.	8a-X 8ff 8aa-	.
.	8d-XJ	.	8a-J 8ff	.
=14	=14	=14	=14	=14
2.r	8BL	.	8a-XL 8dd-X 8ff	.
.	8A-X	.	8f 8dd- 8ff	.
.	8FJ	.	8a-J 8dd-	.
.	8FL 8B 8f	.	8dd-L 8ff 8aa-X	.
.	8e-X	.	8a- 8ff 8aa-	.
.	8d-XJ	.	8a-J 8ff	.
=15	=15	=15	=15	=15
2.r	8BL	.	8a-XL 8dd-X 8ff	.
.	8A-X	.	8f 8dd- 8ff	.
.	8FJ	.	8a-J 8dd-	.
.	8D-XL 8F 8d-X	.	8bL 8ff 8bb	.
.	8D- 8F 8d-	.	8b 8ff 8bb	.
.	8BJ 8e-X 8b	.	8a-J 8ff 8aa-X	.
=16	=16	=16	=16	=16
2.r	8D-XL 8F 8d-X	.	8bL 8ff 8bb	.
.	8D- 8F 8d-	.	8b 8ff 8bb	.
.	8BJ 8e-X 8b	.	8a-XJ 8ff 8aa-X	.
.	4e-	.	8bL 8ff 8bb	.
.	.	.	8b 8ff 8bb	.
.	8d-	.	8a-J 8ff 8aa-	.
=17	=17	=17	=17	=17
*	*^	*	*^	*
2.r	4.rc	4.c	.	4raa	4rc	.
.	.	.	.	8raa	[8e	.
.	8g#XL	[4.B-X	.	[4.dd	4.e_	.
.	8gn	.	.	.	.	.
.	8g#XJ	.	.	.	.	.
=18	=18	=18	=18	=18	=18	=18
2.r	4a	4.B-]	.	4dd]	4.e]	.
.	8c	.	.	8f#X	.	.
.	4c#X	4E-X 4A	.	4g	4e-X	.
.	8d	8En 8B-X	.	8g#X	8d	.
=19	=19	=19	=19	=19	=19	=19
*	*^	*^	*	*	*	*
.	.	16qqFFLL	.	[8.qFF	.	.	.	.
.	.	16qqC	[8qC	.	.	.	.	.
.	.	[16qqB-JJ	.	.	.	.	.	.
2.r	2.ryy	4.B-_	2.C\]	2.FFF\ 2.FF]	.	4.g#X 4.ee	8dL	.
.	.	.	.	.	.	.	8c#X	.
.	.	.	.	.	.	.	[8dJ	.
.	.	4B-]	.	.	.	4e 4g#	8dL]	.
.	.	.	.	.	.	.	8d-X	.
.	.	[8A	.	.	.	8f 8a	8cnJ	.
*	*	*v	*v	*v	*	*	*	*
=20	=20	=20	=20	=20	=20	=20
2.r	4Bn	4.A]	.	8ddnL	4.f 4.a	.
.	.	.	.	8dd-X	.	.
.	8c	.	.	8ccJ	.	.
.	4e-X	4.rEE	.	4.raa	4.rc	.
.	8d	.	.	.	.	.
=21	=21	=21	=21	=21	=21	=21
2.r	4.d-X	4.rEE	.	4raa	4rc	.
.	.	.	.	8raa	[8f	.
.	8aL	[4.c-X	.	[4.ee-X	4.f_	.
.	8a-X	.	.	.	.	.
.	8anJ	.	.	.	.	.
=22	=22	=22	=22	=22	=22	=22
2.r	4b-X	4.c-]	.	4ee	4.f]	.
.	8d-X	.	.	8g	.	.
.	4dn	4F-X 4B-X	.	4a-X	4f-X	.
.	8e-X	8Fn 8Bn	.	8an	8e-X	.
=23	=23	=23	=23	=23	=23	=23
*	*	*^	*	*	*^	*
.	16qqGGLL	.	[8.qGG	.	.	.	.	.
.	16qqF	[8qF	.	.	.	.	.	.
.	[16qqBJJ	.	.	.	.	.	.	.
2.r	4.B]	2.F]	2.GGG\ 2.GG]	.	4.a 4.ff	4.rc	8e-X\L	.
.	.	.	.	.	.	.	8d\	.
.	.	.	.	.	.	.	8e-\J	.
.	8BL	.	.	.	8aL	4.f	8e-\L	.
.	8B-X	.	.	.	8b-X	.	8d\J	.
.	8AJ 8c#X	.	.	.	8bnJ	.	8r	.
*	*v	*v	*v	*	*	*	*	*
*	*	*	*	*v	*v	*
=24	=24	=24	=24	=24	=24
2.r	8A-XL 8cn	.	8eeL	4.f	.
.	8G 8B	.	8ee-X	.	.
.	8dJ	.	8ddJ	.	.
.	4f	.	4.raa	4.rc	.
.	8e	.	.	.	.
=25	=25	=25	=25	=25	=25
*	*^	*	*	*	*
2.r	4.rc	4.e-X	.	4raa	4rc	.
.	.	.	.	8raa	[8g	.
*	*clefG2	*	*	*	*	*
.	8bL	[4.d-X	.	[4.ff	4.g_	.
.	8b-X	.	.	.	.	.
.	8bnJ	.	.	.	.	.
=26	=26	=26	=26	=26	=26	=26
2.r	4cc	4.d-]	.	4ff]	4.g]	.
.	8e-X	.	.	8a	.	.
.	4en	4G-X 4c	.	4b-X	4g-X	.
.	8f	8Gn 8d-X	.	8bn	8f	.
*	*clefF4	*	*	*	*	*
=27	=27	=27	=27	=27	=27	=27
2.r	4.AA-X 4.E-X	4.rEE	.	4raa	4rc	.
.	.	.	.	8b	8rc	.
*	*clefG2	*	*	*	*	*
.	8bL	[4.d-X	.	[4.gg	[4.f	.
.	8b-X	.	.	.	.	.
.	8bnJ	.	.	.	.	.
=28	=28	=28	=28	=28	=28	=28
2.r	4b	4.d-]	.	4gg]	4.f]	.
.	8f	.	.	8b	.	.
.	8fL	4d-X	.	4b	4g	.
.	8f-X	.	.	.	.	.
.	8e-XJ	8c	.	8cc	8a-X	.
*	*clefF4	*	*	*	*	*
=29	=29	=29	=29	=29	=29	=29
.	[8qg	[8qc [8qcc	.	.	.	.
2.r	4.g]	2.D 2.c] 2.cc]	.	[4.aa-X	2.a-X	.
.	4.f#X	.	.	8aa-]	.	.
.	.	.	.	4cc	.	.
=30	=30	=30	=30	=30	=30	=30
*	*^	*^	*	*	*	*
.	[4qfnX	.	.	16qqfLL	.	.	.	.
.	.	[8.qB	.	16qqB	.	.	.	.
.	.	.	[8qF	16qqF	.	.	.	.
.	.	.	.	[16qqGGJJ	.	.	.	.
2.r	2.f]	2.B]	2.F\]	2.GGG\ 2.GG]	.	8cc#X	8an	.
.	.	.	.	.	.	[4aa	[4c#X	.
.	.	.	.	.	.	8aaL]	4c#]	.
.	.	.	.	.	.	8ee	.	.
.	.	.	.	.	.	8ddJ	8d	.
*	*	*v	*v	*v	*	*	*	*
=31	=31	=31	=31	=31	=31	=31
.	.	[8qCC\ [8qGG	.	.	.	.
2.r	4B	4.CC] 4.GG] 4.E 4.e	.	4dd	4.g	.
.	8c	.	.	[8cc	.	.
.	4.rc	4.rEE	.	8ccL]	4.rc	.
.	.	.	.	8f#X	.	.
.	.	.	.	8gJ	.	.
*	*v	*v	*	*	*	*
*	*	*	*v	*v	*
=32	=32	=32	=32	=32
2.r	2.r	.	8g#XL	.
.	.	.	8a	.
.	.	.	8b-XJ	.
.	.	.	8bnL	.
.	.	.	8cc	.
.	.	.	8cc#XJ	.
=33	=33	=33	=33	=33
*	*	*	*^	*
2.r	4.B-X	.	4dd	4.e 4.g-X	.
.	.	.	8cc#X	.	.
.	4.G-X	.	4dd	4.d 4.b-X	.
.	.	.	8cc#	.	.
=34	=34	=34	=34	=34	=34
*	*	*	*	*^	*
2.r	4.Gn	.	8raa	8rc	8r	.
.	.	.	8ddL	4b-X	8e\L	.
.	.	.	8ee-XJ	.	8e-X\J	.
.	4.G#X	.	8raa	8rc	8d\L	.
.	.	.	8eenL	4b-	8d-X\	.
.	.	.	8cccJ	.	8c\J	.
*	*	*	*	*v	*v	*
=35	=35	=35	=35	=35	=35
2.r	4.c	.	4ee	4.g-X 4.g#X	.
.	.	.	8dd#X	.	.
.	4.G#X	.	4ee	4.g-X 4.cc	.
.	.	.	8dd#	.	.
=36	=36	=36	=36	=36	=36
*	*	*	*	*^	*
2.r	2.A	.	8raa	8rc	8r	.
.	.	.	8eeL	4cc	8g-X\L	.
.	.	.	8ffJ	.	8f\J	.
.	.	.	8gg#XL	4cc	8e\L	.
.	.	.	8aa	.	8f\J	.
.	.	.	8cccJ	8rc	8r	.
*	*	*	*v	*v	*v	*
=37	=37	=37	=37	=37
2.r	8r	.	8ddd#XL	.
.	8DnL	.	8eee	.
.	8cJ	.	[8ccJ [8ee [8ff#X	.
.	8aL	.	8ccL] 8ee] 8ff#]	.
.	8g	.	8cc 8ee 8gg	.
.	8f#XJ	.	8ccJ 8ee 8gg#X	.
=38	=38	=38	=38	=38
2.r	8fnL	.	8ccL 8ee 8gg#X	.
.	8GGn	.	8cc 8ee 8aa	.
.	8FJ	.	[8fJ [8a [8cc#X	.
.	8eL	.	8fL] 8a] 8cc#]	.
.	8d	.	8f 8a 8dd	.
.	8cnJ	.	8fJ 8a 8dd#X	.
=39	=39	=39	=39	=39
2.r	8r	.	8fL 8a 8dd#X	.
.	8GGnL	.	8e 8g#X 8ee	.
.	8FJ	.	[8eJ [8g#	.
.	8cL	.	8eL] 8g#]	.
.	8B	.	8d#X 8a	.
.	8B-XJ	.	8dnJ 8a#X	.
=40	=40	=40	=40	=40
2.r	8AL	.	4d-X 4f 4b	.
.	8A-X	.	.	.
.	8GJ	.	[8c [8e [8cc	.
.	8CL	.	8c] 8e] 8cc]	.
.	8EEJ	.	8gL	.
.	8r	.	8g#XJ	.
=41	=41	=41	=41	=41
*	*	*	*^	*
2.r	4.FF 4.F	.	4a	16aLL	.
.	.	.	.	16d-X	.
.	.	.	.	16B	.
.	.	.	.	16d-J	.
.	.	.	8g#X	8g#J	.
.	4.DD-X 4.D-X	.	4a	16aLL	.
.	.	.	.	16f	.
.	.	.	.	16B	.
.	.	.	.	16fJ	.
.	.	.	8g#	8g#J	.
=42	=42	=42	=42	=42	=42
*	*	*	*	*^	*
2.r	4.DDn 4.Dn	.	8raa	8rc	8r	.
.	.	.	8aL	4f	8B\L	.
.	.	.	8b-XJ	.	8B-X\J	.
.	4.DD#X 4.D#X	.	8raa	8rc	8A\L	.
.	.	.	8bnL	4f	8A-X\	.
.	.	.	8ggJ	.	8G\J	.
*	*	*	*	*v	*v	*
=43	=43	=43	=43	=43	=43
2.r	4.GG 4.G	.	4b	16bLL	.
.	.	.	.	16d#X	.
.	.	.	.	16d-X	.
.	.	.	.	16d#XJ	.
.	.	.	8a#X	8a#J	.
.	4.DD#X 4.D#X	.	4b	16bLL	.
.	.	.	.	16g	.
.	.	.	.	16d-X	.
.	.	.	.	16gJ	.
.	.	.	8a#X	8a#J	.
=44	=44	=44	=44	=44	=44
*	*	*	*	*^	*
2.r	2.EE 2.E	.	8raa	8rc	8r	.
.	.	.	8bL	4g	8d-X\L	.
.	.	.	8ccJ	.	8c\J	.
.	.	.	8dd#XL	4g	8B\L	.
.	.	.	8ee	.	8c\J	.
.	.	.	8ccJ 8ee 8gg	8rc	8r	.
*	*	*	*v	*v	*v	*
=45	=45	=45	=45	=45
2.r	8r	.	8bL 8ee 8gg	.
.	8FF#XL	.	8a#X 8ee 8gg#X	.
.	8EJ	.	[8eJ [8g#X [8a#	.
.	8c#XL	.	8eL] 8g#] 8a#]	.
.	8B	.	8e 8g# 8b	.
.	8A#XJ	.	8eJ 8g# 8b#X	.
=46	=46	=46	=46	=46
2.r	8r	.	8eL 8g#X 8b#X	.
.	8BBBnL	.	8e 8g# 8cc#X	.
.	8BBJ	.	[8AnJ [8c#X [8e#X	.
.	8G#XL	.	8AL] 8c#] 8e#]	.
.	8F#X	.	8A 8c# 8f#X	.
.	8EnJ	.	8AJ 8c# 8f##X	.
=47	=47	=47	=47	=47
2.r	8r	.	8AL 8c#X 8f##X	.
.	8BBBnL	.	8G#X 8B#X 8g#X	.
.	8BBnJ	.	[8G#J [8B#	.
.	4D#X	.	8G#L] 8B#]	.
.	.	.	8F##X 8c#	.
.	8C##X	.	8F#XJ 8c##X	.
=48	=48	=48	=48	=48
2.r	8C#XL	.	4Fn 4A 4d#X	.
.	8Cn	.	.	.
.	8BBJ	.	8E 8G#X 8e	.
.	8EE	.	8BL 8e 8g#X	.
.	8r	.	8e 8g# 8b	.
.	8r	.	8g#J 8b 8ee	.
=49	=49	=49	=49	=49
2.r	8r	.	8bL 8ee 8ggn	.
.	8FF#XL	.	8a#X 8ee 8gg#X	.
.	8EJ	.	[8eJ [8g#X [8a#	.
.	8c#XL	.	8eL] 8g#] 8a#]	.
.	8B	.	8e 8g# 8b	.
.	8A#XJ	.	8eJ 8g# 8b#X	.
=50	=50	=50	=50	=50
2.r	8r	.	8eL 8g#X 8b#X	.
.	8BBBnL	.	8e 8g# 8cc#X	.
.	8BBJ	.	[8AnJ [8c#X [8e#X	.
.	8G#XL	.	8AL] 8c#] 8e#]	.
.	8F#X	.	8A 8c# 8f#X	.
.	8EnJ	.	8AJ 8c# 8f##X	.
=51	=51	=51	=51	=51
2.r	8r	.	8AL 8c#X 8f##X	.
.	8BBBnL	.	8G#X 8B#X 8g#X	.
.	8BBnJ	.	[8G#J [8B#	.
.	4D#X	.	8G#L] 8B#]	.
.	.	.	8Gn 8c#	.
.	8Dn	.	8F#XJ 8A 8d	.
=52	=52	=52	=52	=52
*	*	*	*^	*
2.r	4C#X	.	8d#XL	4.F#X 4.A	.
.	.	.	8dn	.	.
.	8Cn	.	8d#XJ	.	.
.	4.BB	.	8g#XL	4.A 4.d#	.
.	.	.	8f#X	.	.
.	.	.	8fnJ	.	.
*	*	*	*v	*v	*
=53||	=53||	=53||	=53||	=53||
*k[f#c#g#d#]	*k[f#c#g#d#]	*	*k[f#c#g#d#]	*
*	*^	*	*	*
2.r	[2.e	4rEE	.	8e	.
.	.	.	.	8r	.
.	.	[8G# [8B	.	8r	.
.	.	8G#] 8B]	.	8bL	.
.	.	[4G# 4B	.	8a#X	.
.	.	.	.	8bJ	.
=54	=54	=54	=54	=54	=54
2.r	2.e]	4G#] 4A#X	.	8ccn	.
.	.	.	.	[4gg#	.
.	.	[8G# [8A#	.	.	.
.	.	8G#] 8A#]	.	4gg#]	.
.	.	4G# 4A#	.	.	.
.	.	.	.	8cc	.
=55	=55	=55	=55	=55	=55
2.r	2.e	4rEE	.	4b	.
.	.	[8G# [8B	.	8a#X	.
.	.	8G#] 8B]	.	4b	.
.	.	4G# 4B	.	.	.
.	.	.	.	8b#X	.
=56	=56	=56	=56	=56	=56
2.r	2.e#X	4rEE	.	[4.dd#	.
.	.	[8G# [8B	.	.	.
.	.	8G#] 8B]	.	4dd#]	.
.	.	4G# 4B	.	.	.
.	.	.	.	8cc#	.
=57	=57	=57	=57	=57	=57
*	*	*^	*	*	*
2.r	2.fn	8BL	4A\	.	8dd-XL	.
.	.	8d-X	.	.	8b	.
.	.	8cnJ	[8A\	.	8ccnJ	.
.	.	4.c	8A\]	.	[4.ee	.
.	.	.	4A\	.	.	.
*	*	*v	*v	*	*	*
=58	=58	=58	=58	=58	=58
2.r	4BB	4rEE	.	4ee]	.
.	8f#X	[8A 8cn	.	8dd#	.
.	8e#XL	4.A] 4.d#	.	4cccn	.
.	8f#	.	.	.	.
.	8f##XJ	.	.	8ccc	.
*	*v	*v	*	*	*
=59	=59	=59	=59	=59
2.r	4G# 4e 4g#	.	8cccnL	.
.	.	.	8bb	.
.	8EE 8BB	.	8gg#J	.
.	4G# 4e 4g#	.	32%3eeL	.
.	.	.	32%3a#X	.
.	.	.	32%3b	.
.	8G# 8B 8e	.	.	.
.	.	.	32%3b#XJ	.
=60	=60	=60	=60	=60
.	.	.	8qdd#/	.
2.r	2.G# 2.A#X 2.e	.	4cc#	.
.	.	.	16qqb#X/LL	.
.	.	.	16qqcc#/JJ	.
.	.	.	32eeLLL	.
.	.	.	32gg#	.
.	.	.	32bb#X	.
.	.	.	32ccc#JJJ	.
.	.	.	16eeeLL	.
.	.	.	16cc#JJ	.
.	.	.	8r	.
.	.	.	8r	.
=61	=61	=61	=61	=61
*	*^	*	*	*
2.r	[2.e	4rEE	.	4r	.
.	.	[8G# [8B	.	8r	.
.	.	8G#] 8B]	.	8bL	.
.	.	[4G# 4B	.	8a#X	.
.	.	.	.	8bJ	.
=62	=62	=62	=62	=62	=62
2.r	2.e]	4G#] 4A#X	.	8ccn	.
.	.	.	.	[4gg#	.
.	.	[8G# [8A#	.	.	.
.	.	8G#] 8A#]	.	4gg#]	.
.	.	4G# 4A#	.	.	.
.	.	.	.	8cc	.
=63	=63	=63	=63	=63	=63
2.r	2.e	4rEE	.	4b	.
.	.	[8G# [8B	.	8a#X	.
.	.	8G#] 8B]	.	4b	.
.	.	4G# 4B	.	.	.
.	.	.	.	8b#X	.
=64	=64	=64	=64	=64	=64
2.r	2.e#X	4rEE	.	[4.dd#	.
.	.	[8G# [8B	.	.	.
.	.	8G#] 8B]	.	4dd#]	.
.	.	4G# 4B	.	.	.
.	.	.	.	8cc#	.
=65	=65	=65	=65	=65	=65
2.r	2.fn	4rEE	.	4ccn	.
.	.	[8A [8cn	.	8b	.
.	.	8A] 8c]	.	4cc	.
.	.	4A 4c	.	.	.
.	.	.	.	8cc#X	.
=66	=66	=66	=66	=66	=66
2.r	2.f#X	4rEE	.	[4.ee	.
.	.	[8A [8cn	.	.	.
.	.	8A] 8c]	.	4ee]	.
.	.	4A 4c	.	.	.
.	.	.	.	8ddn	.
=67	=67	=67	=67	=67	=67
*	*	*^	*	*	*
2.r	2.f#	8B#XL	4A#X\	.	8ddnL	.
.	.	8dn	.	.	8b#X	.
.	.	8c#J	[8A#\	.	8cc#J	.
.	.	4.c#	8A#\]	.	[4.ee	.
.	.	.	4A#\	.	.	.
*	*v	*v	*v	*	*	*
=68	=68	=68	=68	=68
2.r	2.B 2.an	.	4ee]	.
.	.	.	[8dd#	.
.	.	.	8dd#L]	.
.	.	.	8gg# 8ccc#	.
.	.	.	8ff#J	.
=69	=69	=69	=69	=69
2.r	4.E 4.B 4.e	.	4ff#	.
.	.	.	[8a#X	.
.	4r	.	8a#L]	.
.	.	.	8b	.
.	8r	.	[8b#XJ	.
=70	=70	=70	=70	=70
2.r	2.r	.	8b#L]	.
.	.	.	8cc#	.
.	.	.	8ddnJ	.
.	.	.	8dd#XL	.
.	.	.	8ee	.
.	.	.	8ee#XJ	.
=71	=71	=71	=71	=71
*	*	*	*^	*
2.r	8.r	.	4.ff#	16ff#LL	.
.	.	.	.	16g#	.
.	.	.	.	16dnJJ	.
.	16BB-XLL	.	.	16rc	.
.	16G#	.	.	8rc	.
.	16dnJJ	.	.	.	.
.	4r	.	[4a	4.f#	.
.	8r	.	16aLL]	.	.
.	.	.	16b-XJJ	.	.
=72	=72	=72	=72	=72	=72
2.r	8.r	.	4.e#X 4.cc#	16e#LL	.
.	.	.	.	16dn	.
.	.	.	.	16G#JJ	.
.	16EEnLL	.	.	16rc	.
.	16Dn	.	.	8rc	.
.	16G#JJ	.	.	.	.
.	4r	.	4.e#X	4.rc	.
.	8r	.	.	.	.
*	*	*	*clefF4	*	*
=73	=73	=73	=73	=73	=73
2.r	8.r	.	4.f#	16f#LL	.
.	.	.	.	16G#	.
.	.	.	.	16DnJJ	.
.	16BBB-XLL	.	.	16rEE	.
.	16GG#	.	.	8rEE	.
.	16DnJJ	.	.	.	.
.	4r	.	[4A	4.F#	.
.	8r	.	16ALL]	.	.
.	.	.	16B-XJJ	.	.
=74	=74	=74	=74	=74	=74
2.r	8.r	.	4.E#X 4.c#	16E#LL	.
.	.	.	.	16Dn	.
.	.	.	.	16GG#JJ	.
.	16EEEnLL	.	.	16rEE	.
.	16EE	.	.	8rEE	.
.	16DnJJ	.	.	.	.
*	*	*	*clefG2	*	*
.	8r	.	8BL	4.rc	.
.	16EELL	.	8e	.	.
.	16BB	.	.	.	.
.	16G#	.	8g#J	.	.
.	16dnJJ	.	.	.	.
=75	=75	=75	=75	=75	=75
2.r	8.r	.	4.cc#	16cc#LL	.
.	.	.	.	16e	.
.	.	.	.	16G#JJ	.
.	16AALL	.	.	16rc	.
.	16G#	.	.	8rc	.
.	16c#JJ	.	.	.	.
.	4r	.	[4d#	4.rc	.
.	8r	.	16d#LL]	.	.
.	.	.	16eJJ	.	.
=76	=76	=76	=76	=76	=76
2.r	8.r	.	4.g#	16g#LL	.
.	.	.	.	16cn	.
.	.	.	.	16EJJ	.
.	16AA#XLL	.	.	16rc	.
.	16G#	.	.	8rc	.
.	16eJJ	.	.	.	.
.	4r	.	4.c	4.rc	.
.	8r	.	.	.	.
=77	=77	=77	=77	=77	=77
2.r	8.r	.	4g#	16g#LL	.
.	.	.	.	16cn	.
.	.	.	.	16D#JJ	.
.	16BBLL	.	.	16rc	.
.	16A	.	8c	8rc	.
.	16d#JJ	.	.	.	.
.	4r	.	[4.g#	4.rc	.
.	8r	.	.	.	.
*	*	*	*v	*v	*
=78	=78	=78	=78	=78
2.r	2.r	.	4.g#]	.
.	.	.	4f#	.
.	.	.	8fn	.
=79	=79	=79	=79	=79
*	*^	*	*	*
2.r	4rc	16EELL	.	8e	.
.	.	16E	.	.	.
.	.	16dn	.	8r	.
.	.	16E	.	.	.
.	8rc	16d	.	8ee	.
.	.	16g#JJ	.	.	.
*	*clefG2	*	*	*	*
.	8cc#L	16cc#LL	.	[4.dddn	.
.	.	16g#	.	.	.
.	8.a#X	16a#	.	.	.
.	.	16dn	.	.	.
.	.	16g#	.	.	.
.	16bJk	16bJJ	.	.	.
=80	=80	=80	=80	=80	=80
2.r	4.ddn	16eLL 16dd	.	4ddd]	.
.	.	16a-X	.	.	.
.	.	16B-X	.	.	.
.	.	16e	.	.	.
.	.	16B-	.	8ff#X	.
.	.	16CnJJ	.	.	.
*	*clefF4	*	*	*	*
.	8.dd	16eLL 16dd	.	4ggn	.
.	.	16gn	.	.	.
.	.	16B-X	.	.	.
*	*clefG2	*	*	*	*
.	8.e	16e	.	.	.
.	.	16B-	.	8gg#X	.
.	.	16CJJ	.	.	.
=81	=81	=81	=81	=81	=81
2.r	4rc	16CC#XLL	.	4.ee 4.gg# 4.eee	.
.	.	16C#X	.	.	.
.	.	16B-X	.	.	.
.	.	16C#	.	.	.
.	8rc	16B-	.	.	.
.	.	16eJJ	.	.	.
.	8.cc#	16cc#LL	.	4ee 4gg#	.
.	.	16e	.	.	.
.	.	16B-	.	.	.
.	8.e	16e	.	.	.
.	.	16A	.	8ee 8aa	.
.	.	16C#JJ	.	.	.
=82	=82	=82	=82	=82	=82
2.r	8A 8e 8a	8rEE	.	8cc# 8ee 8ccc#	.
.	[4c#	16c#LL	.	8d#L 8a 8cc# 8dd#	.
.	.	16Fn	.	.	.
.	.	16A	.	8eJ 8a 8cc# 8ee	.
.	.	16C#JJ	.	.	.
.	8c#]	16D#LL	.	8fnL 8a 8cc# 8ffn	.
.	.	16AA	.	.	.
.	8rc	16F	.	8A 8d# 8a	.
.	.	16FFn	.	.	.
.	8rc	16C#	.	8AJ 8e	.
.	.	16CC#JJ	.	.	.
=83	=83	=83	=83	=83	=83
2.r	4rc	16FF#XLL	.	4r	.
.	.	16F#	.	.	.
.	.	16e	.	.	.
.	.	16F#	.	.	.
.	8rc	16e	.	8ff#	.
.	.	16a#XJJ	.	.	.
.	8dd#L	16dd#LL	.	[4.eee	.
.	.	16a#X	.	.	.
.	8.b#X	16b#	.	.	.
.	.	16e	.	.	.
.	.	16a#	.	.	.
.	16cc#Jk	16cc#JJ	.	.	.
=84	=84	=84	=84	=84	=84
2.r	4.ee	16f#LL 16ee	.	4eee]	.
.	.	16b-X	.	.	.
.	.	16cn	.	.	.
.	.	16f#	.	.	.
.	.	16c	.	8gg#X	.
.	.	16DnJJ	.	.	.
*	*clefF4	*	*	*	*
.	8.ee	16f#LL 16ee	.	4aa	.
.	.	16a	.	.	.
.	.	16c	.	.	.
*	*clefG2	*	*	*	*
.	8.f#	16f#	.	.	.
.	.	16c	.	8aa#X	.
.	.	16DJJ	.	.	.
=85	=85	=85	=85	=85	=85
2.r	4.rc	16DD#XLL	.	4.ff# 4.aa#X 4.fff#	.
.	.	16D#X	.	.	.
.	.	16cn	.	.	.
.	.	16D#	.	.	.
.	.	16c	.	.	.
.	.	16f#JJ	.	.	.
.	8.dd#	16dd#LL	.	4ff# 4aa#	.
.	.	16f#	.	.	.
.	.	16c	.	.	.
.	8.f#	16f#	.	.	.
.	.	16B	.	8ff# 8bb	.
.	.	16D#JJ	.	.	.
=86	=86	=86	=86	=86	=86
2.r	8B 8f# 8b	8rEE	.	8dd# 8ff# 8ddd#	.
.	[4d#	16d#LL	.	8e#XL 8b 8dd# 8ee#X	.
.	.	16Gn	.	.	.
.	.	16B	.	8f#J 8b 8dd# 8ff#	.
.	.	16D#JJ	.	.	.
.	8d#]	16E#XLL	.	8gnL 8b 8dd# 8ggn	.
.	.	16BB	.	.	.
.	8rc	16G	.	8B 8e# 8b	.
.	.	16GGn	.	.	.
.	8rc	16D#	.	8BJ 8f#	.
.	.	16DD#JJ	.	.	.
*	*v	*v	*	*	*
=87	=87	=87	=87	=87
16BBBLL	4cc#	.	8r	.
16BB	.	.	.	.
16A	.	.	8r	.
16d#	.	.	.	.
16b#X	8b#X	.	[8ee#X	.
16d#JJ	.	.	.	.
16cc#LL	4cc#	.	4.ee#_ [4.ddd#	.
16d#	.	.	.	.
16A	.	.	.	.
16d#	.	.	.	.
16b#	8b#	.	.	.
16d#JJ	.	.	.	.
=88	=88	=88	=88	=88
16BBLL	8r	.	4ee#] 4ddd#]	.
16A	.	.	.	.
16d#	8cc#L	.	.	.
16a	.	.	.	.
16dn	8ddnJ	.	8ee#X	.
16aJJ	.	.	.	.
16c#LL	8r	.	4ff#	.
16a	.	.	.	.
16cn	8dd#XL	.	.	.
16A	.	.	.	.
16B	8bbJ	.	8ff##X	.
16BBJJ	.	.	.	.
=89	=89	=89	=89	=89
16EELL	4dd#	.	4r	.
16BB	.	.	.	.
16A	.	.	.	.
16d#	.	.	.	.
.	.	.	8qf##X/	.
16cc#	8cc#	.	[8ff##X	.
16d#JJ	.	.	.	.
16cc#LL	4cc#	.	4.ff##_ [4.ddd#	.
16d#	.	.	.	.
16A	.	.	.	.
16d#	.	.	.	.
16ccn	8ccn	.	.	.
16d#JJ	.	.	.	.
=90	=90	=90	=90	=90
16EELL	4cc#X	.	4ff##] 4ddd#]	.
16BB	.	.	.	.
16A	.	.	.	.
16d#	.	.	.	.
16ccn	8ccn	.	8ff##X	.
16d#JJ	.	.	.	.
16ccLL	8.ccL	.	4ff##	.
16d#	.	.	.	.
16A	.	.	.	.
16b	8.bJ	.	.	.
16e	.	.	8gg#	.
16G#JJ	.	.	.	.
=91||	=91||	=91||	=91||	=91||
*k[b-e-a-d-]	*k[b-e-a-d-]	*	*k[b-e-a-d-]	*
16BBB-XLL	4r	.	[4.ff-X [4.aa-X [4.fff-X	.
16BB-X	.	.	.	.
16A-X	.	.	.	.
16dn	.	.	.	.
16cc	8cc	.	.	.
16dJJ	.	.	.	.
16ccLL	4cc	.	4ff-] 4aa-] 4fff-]	.
16d	.	.	.	.
16A-	.	.	.	.
16d	.	.	.	.
16A-	8ff-X	.	8aa-	.
16BB-JJ	.	.	.	.
=92	=92	=92	=92	=92
16EE-LL	4ffn	.	8aan	.
16E-	.	.	.	.
16G	.	.	[4fff	.
16d-X	.	.	.	.
16cc	[8cc	.	.	.
16d-JJ	.	.	.	.
16GLL	8ccL]	.	8fffL]	.
16d-	.	.	.	.
16an	8an	.	8ccc	.
16d-	.	.	.	.
16b-	16b-L	.	8bb-J	.
16d-JJ	16dd-JJ	.	.	.
=93	=93	=93	=93	=93
16BBB--LL	2.r	.	8dd-L 8ff 8bb--	.
16BB--	.	.	.	.
16G	.	.	8cc-X 8dd- 8ff	.
16d-	.	.	.	.
16g	.	.	8b--J 8dd- 8ff	.
16d-JJ	.	.	.	.
16GLL	.	.	8gL 8b-- 8dd-	.
16BB--JJ	.	.	.	.
8r	.	.	8f 8b-- 8dd-	.
8r	.	.	8e-J 8f 8b--	.
=94	=94	=94	=94	=94
2.r	2.r	.	8d-L 8f 8b--	.
.	.	.	8c-X 8d- 8f	.
.	.	.	8B--J 8d- 8f	.
.	.	.	8B--L 8d- 8f	.
.	.	.	8d- 8f 8b--	.
.	.	.	8fJ 8b-- 8dd-	.
*	*clefF4	*	*	*
=95	=95	=95	=95	=95
*	*	*	*^	*
2.r	8.r	.	4.ff	16ffLL	.
.	.	.	.	16g	.
.	.	.	.	16d-XJJ	.
.	16BB--LL	.	.	16rc	.
.	16G	.	.	8rc	.
.	16d-JJ	.	.	.	.
.	4.r	.	[4a-	4.f	.
.	.	.	16a-LL]	.	.
.	.	.	16b--JJ	.	.
=96	=96	=96	=96	=96	=96
2.r	8.r	.	4.cc	16enLL 16cc	.
.	.	.	.	16d-	.
.	.	.	.	16GJJ	.
.	16EE-XLL	.	.	16rc	.
.	16D-	.	.	8rc	.
.	16GJJ	.	.	.	.
.	4.r	.	4.en	4.rc	.
*	*	*	*v	*v	*
=97	=97	=97	=97	=97
.	[16qBBBB--/ [16qBBB--	.	.	.
2.r	8BBBB--] 8BBB--] 8GG 8D- 8G	.	8d-L 8f	.
.	8r	.	8c-X 8d- 8f	.
.	8r	.	8B--J 8d- 8f	.
*	*	*	*clefF4	*
.	4.r	.	8GL 8B-- 8d-	.
.	.	.	8F 8B-- 8d-	.
.	.	.	8E-J 8F 8B--	.
=98	=98	=98	=98	=98
2.r	4.r	.	8D-L 8F 8B--	.
.	.	.	8C-X 8D- 8F	.
.	.	.	8BB--J 8D- 8F	.
.	8BBB--L 8GG	.	8BB--L 8D- 8F	.
.	8BBB-- 8GG	.	8BB-- 8D- 8F	.
.	16BBB--Jk 16GG	.	16BB--Jk 16D- 16F	.
.	16r	.	16r	.
*	*	*	*clefG2	*
=99	=99	=99	=99	=99
*	*	*	*^	*
2.r	8r	.	4ff	24ffLL	.
.	.	.	.	24dd-	.
.	.	.	.	24gJJ	.
.	24d-LL	.	.	8rc	.
.	24G	.	.	.	.
.	24BB--JJ	.	.	.	.
.	8r	.	8een	8rc	.
.	8r	.	4ff	24ffLL	.
.	.	.	.	24dd-	.
.	.	.	.	24gJJ	.
.	24d-LL	.	.	8rc	.
.	24G	.	.	.	.
.	24EE-XJJ	.	.	.	.
.	8r	.	8een	8rc	.
=100	=100	=100	=100	=100	=100
*	*	*	*	*^	*
2.r	8r	.	8raa	24rc	24r	.
.	.	.	.	[12dd-	24dd-\LL	.
.	.	.	.	.	[24g\JJ	.
.	24d-LL	.	8ffL	4dd-]	8g\]L	.
.	24G	.	.	.	.	.
.	24BB--JJ	.	.	.	.	.
.	8r	.	8gg-XJ	.	8g-X\J	.
.	8r	.	8raa	4rc	24f/LL	.
.	.	.	.	.	24dd-/	.
.	.	.	.	.	24f-X/JJ	.
.	24d-LL	.	8ggnL	.	16gg\LL	.
.	24G	.	.	.	.	.
.	.	.	.	.	16e-\JJ	.
.	24EE-JJ	.	.	.	.	.
.	8r	.	8eee-J	8rc	8r	.
*	*	*	*	*v	*v	*
=101	=101	=101	=101	=101	=101
*	*^	*	*	*	*
2.r	16%3.e-	32%3e-L	.	40%3raa	40%3rc	.
.	.	.	.	20%3.gg	40%3ggL	.
.	.	32%3B--	.	.	.	.
.	.	.	.	.	40%3ee-	.
.	.	32%3BBnJ	.	.	.	.
.	.	.	.	.	40%3b--	.
.	32%3rc	32%3rEE	.	.	.	.
.	.	.	.	40%3ff#X	40%3ff#J	.
.	16%3.e-	32%3e-L	.	40%3raa	40%3rc	.
.	.	.	.	20%3.gg	40%3ggL	.
.	.	32%3B--	.	.	.	.
.	.	.	.	.	40%3bn	.
.	.	32%3EE-J	.	.	.	.
.	.	.	.	.	40%3b--	.
.	32%3rc	32%3rEE	.	.	.	.
.	.	.	.	40%3ff#	40%3ff#J	.
=102	=102	=102	=102	=102	=102	=102
2.r	16%3.e-	32%3e-L	.	40%3raa	40%3rc	.
.	.	.	.	20%3.gg	40%3ggL	.
.	.	32%3A-	.	.	.	.
.	.	.	.	.	40%3cc	.
.	.	32%3CJ	.	.	.	.
.	.	.	.	.	40%3a-	.
.	32%3rc	32%3rEE	.	.	.	.
.	.	.	.	40%3aa-	40%3aa-J	.
.	4.rc	4.rEE	.	8bnL 8aa- 8bbn	4.rc	.
.	.	.	.	8cc 8aa- 8ccc	.	.
.	.	.	.	8ee-J 8aa- 8eee-	.	.
*	*v	*v	*	*	*	*
*	*	*	*v	*v	*
=103	=103	=103	=103	=103
2.r	8A- 8B- 8dn 8a-	.	8gg-XL 8bb- 8dddn 8ggg-X	.
.	8r	.	8ggn 8bb- 8ddd 8gggn	.
.	8BBB- 8BB-	.	8gg-XJ 8bb- 8ddd 8ggg-X	.
.	8DDn 8Dn	.	8bb-L 8ddd 8ggg- 8bbb-	.
.	8r	.	8ff 8bb- 8ddd 8fff	.
.	8r	.	8ff-XJ 8bb- 8ddd 8fff-X	.
=104	=104	=104	=104	=104
2.r	8A- 8c 8a-	.	8ff-XL 8aa- 8ccc 8fff-X	.
.	8r	.	8aa- 8aaa-	.
.	8CC 8C	.	8ddnJ 8aa- 8ccc 8dddn	.
.	8EE- 8E-	.	8ee-L 8aa- 8ccc 8eee-	.
.	8r	.	8een 8aa- 8ccc 8eeen	.
.	8r	.	8ffnJ 8aa- 8ccc 8fffn	.
=105	=105	=105	=105	=105
2.r	8A- 8B- 8dn 8a-	.	8gg-XL 8bb- 8dddn 8ggg-X	.
.	8r	.	8ggn 8bb- 8ddd 8gggn	.
.	8BBB- 8BB-	.	8gg-XJ 8bb- 8ddd 8ggg-X	.
.	8DDn 8Dn	.	8bb-L 8ddd 8ggg- 8bbb-	.
.	8r	.	8ff 8bb- 8ddd 8fff	.
.	8r	.	8ff-XJ 8bb- 8ddd 8fff-X	.
=106	=106	=106	=106	=106
2.r	8A- 8c 8a-	.	8ff-XL 8aa- 8ccc 8fff-X	.
.	8r	.	8aa- 8aaa-	.
.	8CC 8C	.	8ddnJ 8aa- 8ccc 8dddn	.
.	8EE- 8E-	.	8ee-L 8aa- 8ccc 8eee-	.
.	8r	.	8gg 8ccc 8eee- 8ggg	.
.	8r	.	8aa-J 8ccc 8eee- 8aaa-	.
=107	=107	=107	=107	=107
2.r	8A- 8c 8f 8a-	.	8r	.
.	8r	.	8cccL 8fff 8cccc	.
.	8DDn 8Dn	.	8ccc-XJ 8fff 8cccc-X	.
.	8FF 8F	.	8bb-L 8fff 8bbb-	.
.	8r	.	8bb-- 8fff 8bbb--	.
.	8r	.	8aa-J 8fff 8aaa-	.
=108	=108	=108	=108	=108
2.r	8F 8A- 8c 8f	.	8r	.
.	8r	.	8ccL 8ff 8ccc	.
.	8DDn 8Dn	.	8cc-XJ 8ff 8ccc-X	.
.	8FF 8F	.	8b-L 8ff 8bb-	.
.	8r	.	8b-- 8ff 8bb--	.
.	8r	.	8a-J 8ff 8aa-	.
=109	=109	=109	=109	=109
2.r	8G-X 8A- 8c 8g-X	.	8r	.
.	8r	.	8ccL 8gg-X 8ccc	.
.	8EE- 8E-	.	8cc-XJ 8gg- 8ccc-X	.
.	8GG-X 8G-	.	8b-L 8gg- 8bb-	.
.	8r	.	8b-- 8gg- 8bb--	.
.	8r	.	8a-J 8gg- 8aa-	.
=110	=110	=110	=110	=110
2.r	8G-X	.	8r	.
.	8r	.	8cL 8g-X 8cc	.
.	8C	.	8cJ 8g- 8b-	.
.	8r	.	8cL 8g-X 8gn	.
.	8EE-	.	8c 8g-X 8a-	.
.	8r	.	8cJ 8g- 8an	.
=111	=111	=111	=111	=111
*	*^	*	*^	*
2.r	16%3.G	32%3GL	.	40%3raa	40%3rc	.
.	.	.	.	20%3.b-	40%3b-L	.
.	.	32%3C	.	.	.	.
.	.	.	.	.	40%3g-X	.
.	.	32%3EEnJ	.	.	.	.
.	.	.	.	.	40%3c	.
.	32%3rc	32%3rEE	.	.	.	.
.	.	.	.	40%3an	40%3aJ	.
.	16%3.G	32%3GL	.	40%3raa	40%3rc	.
.	.	.	.	20%3.b-	40%3b-L	.
.	.	32%3C	.	.	.	.
.	.	.	.	.	40%3g-	.
.	.	32%3EEJ	.	.	.	.
.	.	.	.	.	40%3c	.
.	32%3rc	32%3rEE	.	.	.	.
.	.	.	.	40%3a	40%3aJ	.
*	*v	*v	*	*	*	*
=112	=112	=112	=112	=112	=112
2.r	8EEnL	.	8raa	8rc	.
.	8C 8c	.	8b-L	[4g-X	.
.	8C-XJ 8c-X	.	[8cc-XJ	.	.
.	8BB-L 8B-	.	8cc-L]	4.g-]	.
.	8BB-- 8B--	.	8ccn	.	.
.	8AA-J 8A-	.	8aa-J	.	.
=113	=113	=113	=113	=113	=113
*	*^	*	*	*	*
2.r	4e--	16e--LL	.	4c 4cc	4.a-	.
.	.	16A-	.	.	.	.
.	.	16E--	.	.	.	.
.	.	16EEnJJ	.	.	.	.
.	8rc	8EEEn	.	8Bn 8bn	.	.
.	4.rc	4.rEE	.	4c 4cc	4.a-	.
.	.	.	.	8B 8b	.	.
*	*v	*v	*	*	*	*
*	*	*	*v	*v	*
=114	=114	=114	=114	=114
2.r	8FFFL 8FF	.	8r	.
.	8E-- 8A- 8e--	.	8cL 8a- 8cc	.
.	8D-J 8A- 8d-	.	8d-J 8a- 8dd-	.
.	8B--L 8d- 8b--	.	8enL 8dd- 8een	.
.	8A- 8d- 8a-	.	8f 8dd- 8ff	.
.	8FJ 8d- 8f	.	8a-J 8dd- 8aa-	.
=115	=115	=115	=115	=115
*	*^	*	*^	*
2.r	16%3.G	32%3GL	.	40%3raa	40%3rc	.
.	.	.	.	20%3.bn	40%3bL	.
.	.	32%3C#X	.	.	.	.
.	.	.	.	.	40%3g	.
.	.	32%3EE#XJ	.	.	.	.
.	.	.	.	.	40%3c#X	.
.	32%3rc	32%3rEE	.	.	.	.
.	.	.	.	40%3a#X	40%3a#J	.
.	16%3.G	32%3GL	.	40%3raa	40%3rc	.
.	.	.	.	20%3.b	40%3bL	.
.	.	32%3C#	.	.	.	.
.	.	.	.	.	40%3g	.
.	.	32%3EE#J	.	.	.	.
.	.	.	.	.	40%3c#	.
.	32%3rc	32%3rEE	.	.	.	.
.	.	.	.	40%3a#	40%3a#J	.
*	*v	*v	*	*	*	*
=116	=116	=116	=116	=116	=116
2.r	8EE#XL	.	8raa	8rc	.
.	8C#X 8c#X	.	8bnL	[4g	.
.	8CnJ 8cn	.	[8ccJ	.	.
.	8BBnL 8Bn	.	8ccL]	4.g]	.
.	8BB-X 8B-X	.	8cc#X	.	.
.	8AAnJ 8An	.	8aanJ	.	.
=117	=117	=117	=117	=117	=117
2.r	16d#XLL	.	4c#X 4cc#X	4.an	.
.	16An	.	.	.	.
.	16D#X	.	.	.	.
.	16EE#XJJ	.	.	.	.
.	8EEE#X	.	8B#X 8b#X	.	.
.	4.r	.	4c# 4cc#	4.a	.
.	.	.	8B# 8b#	.	.
*	*	*	*v	*v	*
=118	=118	=118	=118	=118
2.r	8FFF#XL 8FF#X	.	8r	.
.	8E-X 8An 8e-X	.	8c#XL 8an 8cc#X	.
.	8DnJ 8A 8dn	.	8dnJ 8a 8ddn	.
.	8B-L 8d 8b-	.	8e#XL 8dd 8ee#X	.
.	8A 8d 8an	.	8f#X 8dd 8ff#X	.
.	8F#XJ 8d 8f#X	.	8aJ 8dd 8aan	.
=119	=119	=119	=119	=119
*	*	*	*^	*
2.r	40%3fnL	.	4d#X 4dd#X	4.bn	.
.	40%3Bn	.	.	.	.
.	40%3Fn	.	.	.	.
.	40%3FF##X	.	.	.	.
.	.	.	8c##X 8cc##X	.	.
.	40%3FFF##XJ	.	.	.	.
.	4.r	.	4d# 4dd#	4.b	.
.	.	.	8c## 8cc##	.	.
*	*	*	*v	*v	*
=120	=120	=120	=120	=120
2.r	8GGG#XL 8GG#X	.	8r	.
.	8Fn 8Bn 8fn	.	8d#XL 8bn 8dd#X	.
.	8EnJ 8B 8en	.	8enJ 8b 8een	.
.	8cL 8e 8cc	.	8f##XL 8ee 8ff##X	.
.	8B 8e 8bn	.	8g#X 8ee 8gg#X	.
.	8G#XJ 8e 8g#X	.	8bJ 8ee 8bbn	.
=121	=121	=121	=121	=121
*	*	*	*^	*
2.r	40%3f#XL	.	4en 4een	4.bn	.
.	40%3Bn	.	.	.	.
.	40%3F#X	.	.	.	.
.	40%3AAn	.	.	.	.
.	.	.	8d#X 8dd#X	.	.
.	40%3AAAnJ	.	.	.	.
.	4.r	.	4e 4ee	4.b	.
.	.	.	8d# 8dd#	.	.
=122	=122	=122	=122	=122	=122
2.r	4G 4d-X 4g	.	8raa	8rc	.
.	.	.	8dnL 8ddn	4dd-X	.
.	8BBB- 8BB-	.	8e-J 8ee-	.	.
.	8E-L 8d-X 8e-	.	8g-XL 8dd-X 8gg-X	4rc	.
.	8E- 8d- 8e-	.	8gn 8dd- 8ggn	.	.
.	8d-J 8g 8dd-	.	8ee-J 8gg 8eee-	8rc	.
=123	=123	=123	=123	=123	=123
2.r	4G 4d- 4g	.	8raa	8rc	.
.	.	.	8dnL 8ddn	4dd-X	.
.	8BBBn 8BBn	.	8e-J 8ee-	.	.
.	8E-L 8d-X 8e-	.	8g-XL 8dd-X 8gg-X	4rc	.
.	8E- 8d- 8e-	.	8gn 8dd- 8ggn	.	.
.	8d-J 8g 8dd-	.	8ee-J 8gg 8eee-	8rc	.
*	*	*	*v	*v	*
=124	=124	=124	=124	=124
2.r	8B--L 8e- 8b--	.	8r	.
.	8CC 8C	.	8gL 8ee- 8gg	.
.	8A-J 8e- 8a-	.	8a-J 8ee- 8aa-	.
*	*clefG2	*	*	*
.	8f-XL 8a- 8ff-X	.	8bnL 8aa- 8bbn	.
.	8e- 8a- 8ee-	.	8cc 8aa- 8ccc	.
.	8cJ 8a- 8cc	.	8ee-J 8aa- 8eee-	.
*	*clefF4	*	*	*
=125	=125	=125	=125	=125
2.r	4Fn 4c 4fn	.	8r	.
.	.	.	8gL 8cc 8gg	.
.	8DDn 8Dn	.	8a-J 8cc 8aa-	.
.	8A-L 8f 8a-	.	8bnL 8ff 8bbn	.
.	8A- 8f 8a-	.	8cc 8ff 8ccc	.
*	*clefG2	*	*	*
.	8fJ 8cc 8ff	.	8aa-J 8ccc 8aaa-	.
*	*clefF4	*	*	*
=126	=126	=126	=126	=126
2.r	4G-X 4c 4g-X	.	8r	.
.	.	.	8gnL 8cc 8ggn	.
.	8EE- 8E-	.	8a-J 8cc 8aa-	.
.	8A-L 8g-X 8a-	.	8cc-XL 8gg-X 8ccc-X	.
.	8A- 8g- 8a-	.	8ccn 8gg- 8cccn	.
*	*clefG2	*	*	*
.	8g-XJ 8cc 8gg-X	.	8aa-J 8ccc 8aaa-	.
*	*clefF4	*	*	*
=127	=127	=127	=127	=127
2.r	4.r	.	4.r	.
.	8FL 8d- 8a-	.	8a-L 8dd- 8aa-	.
.	8F 8d- 8b--	.	8gn 8dd- 8ggn	.
.	8FJ 8d- 8a-	.	8a-J 8dd- 8aa-	.
=128	=128	=128	=128	=128
2.r	8F 8d- 8g	.	8b-- 8dd- 8bb--	.
.	[4F [4d- [4g	.	[4dd- [4ff [4bb-- [4fff	.
.	4F] 4d-] 4g]	.	4dd-] 4ff] 4bb--] 4fff]	.
.	8F 8d- 8g	.	8b-- 8dd- 8bb--	.
=129	=129	=129	=129	=129
2.r	8GG 8F 8Bn	.	8a- 8dd- 8ff 8aa-	.
.	8r	.	8r	.
.	8r	.	8r	.
.	8FL 8B 8f	.	8dd-L 8ff 8aa-	.
.	8e-	.	8a- 8ff 8aa-	.
.	8d-J	.	8a-J 8ff	.
=130	=130	=130	=130	=130
2.r	8BnL	.	8a-L 8dd- 8ff	.
.	8A-	.	8f 8dd- 8ff	.
.	8FJ	.	8a-J 8dd-	.
.	8GG	.	8fL 8a- 8dd-	.
.	8r	.	8f 8a- 8dd-	.
.	8r	.	8d-J 8f 8a-	.
=131	=131	=131	=131	=131
2.r	4.r	.	4.r	.
.	8FL 8d- 8a-	.	8a-L 8dd- 8aa-	.
.	8F 8d- 8b--	.	8g 8dd- 8gg	.
.	8FJ 8d- 8a-	.	8a-J 8dd- 8aa-	.
=132	=132	=132	=132	=132
2.r	8F 8d- 8g	.	8b-- 8dd- 8bb--	.
.	[4F [4d- [4g	.	[4dd- [4ff [4bb-- [4fff	.
.	4F] 4d-] 4g]	.	4dd-] 4ff] 4bb--] 4fff]	.
.	8F 8d- 8g	.	8b-- 8dd- 8bb--	.
=133	=133	=133	=133	=133
2.r	8GG 8F 8Bn	.	8a- 8dd- 8ff 8aa-	.
.	8r	.	8r	.
.	8r	.	8r	.
.	8FL 8B 8f	.	8dd-L 8ff 8aa-	.
.	8e-	.	8a- 8ff 8aa-	.
.	8d-J	.	8a-J 8ff	.
=134	=134	=134	=134	=134
2.r	8BnL	.	8a-L 8dd- 8ff	.
.	8A-	.	8f 8dd- 8ff	.
.	8FJ	.	8a-J 8dd-	.
.	8GG	.	8fL 8a- 8dd-	.
.	8r	.	8f 8a- 8dd-	.
.	8r	.	8d-J 8f 8a-	.
=135	=135	=135	=135	=135
2.r	4.r	.	4.r	.
*	*clefG2	*	*	*
.	8cL 8a- 8ee-	.	8ee-L 8aa- 8eee-	.
.	8c 8a- 8ff-X	.	8ddn 8aa- 8dddn	.
.	8cJ 8a- 8ee-	.	8ee-J 8aa- 8eee-	.
=136	=136	=136	=136	=136
2.r	8c 8a- 8ddn	.	8ff-X 8aa- 8fff-X	.
.	[4c [4a- [4dd	.	[4aa- [4ccc [4fff- [4cccc	.
.	4c] 4a-] 4dd]	.	4aa-] 4ccc] 4fff-] 4cccc]	.
.	8c 8a- 8dd	.	8ff- 8aa- 8fff-	.
*	*clefF4	*	*	*
=137	=137	=137	=137	=137
2.r	8DDn 8C 8F#X	.	8ee- 8aa- 8ccc 8eee-	.
.	8r	.	8r	.
.	8r	.	8r	.
.	8cL 8cc	.	8ee-L 8aa- 8ccc 8eee-	.
.	8B- 8b-	.	8ee- 8ccc 8eee-	.
.	8A-J 8a-	.	8ee-J 8ccc	.
=138	=138	=138	=138	=138
2.r	8F#XL 8f#X	.	8ee-L 8aa- 8ccc	.
.	8E- 8e-	.	8cc 8aa- 8ccc	.
.	8CJ 8c	.	8ee-J 8aa-	.
.	8CL 8c	.	8a-L 8ee-	.
.	8BB- 8B-	.	8e- 8cc 8ee-	.
.	8AA-J 8A-	.	8e-J 8cc	.
=139	=139	=139	=139	=139
2.r	8FF#XL 8F#X	.	8e-L 8a- 8cc	.
.	8EE- 8E-	.	8c 8a- 8cc	.
.	8CCJ 8C	.	8e-J 8a-	.
.	8cL 8cc	.	8ee-L 8aa- 8ccc 8eee-	.
.	8B- 8b-	.	8ee- 8ccc 8eee-	.
.	8A-J 8a-	.	8ee-J 8ccc	.
=140	=140	=140	=140	=140
2.r	8F#XL 8f#X	.	8ee-L 8aa- 8ccc	.
.	8E- 8e-	.	8cc 8aa- 8ccc	.
.	8CJ 8c	.	8ee-J 8aa-	.
.	8CL 8c	.	8a-L 8ee-	.
.	8BB- 8B-	.	8e- 8cc 8ee-	.
.	8AA-J 8A-	.	8e-J 8cc	.
=141	=141	=141	=141	=141
2.r	8FF#XL 8F#X	.	8e-L 8a- 8cc	.
.	8EE- 8E-	.	8c 8a- 8cc	.
.	8CCJ 8C	.	8e-J 8a-	.
.	8FF#L 8F#	.	8cL 8e- 8a-	.
.	8EE- 8E-	.	8c 8e- 8a-	.
.	8CCJ 8C	.	8A-J 8e-	.
=142	=142	=142	=142	=142
2.r	8FF#XL 8F#X	.	8cL 8e- 8a-	.
.	8EE- 8E-	.	8c 8e- 8a-	.
.	8CCJ 8C	.	8A-J 8e-	.
.	8FF#L 8F#	.	8cL 8e- 8a-	.
.	8EE- 8E-	.	8c 8e- 8a-	.
.	8CCJ 8C	.	8A-J 8e-	.
=143||	=143||	=143||	=143||	=143||
*k[]	*k[]	*	*k[]	*
2.r	4.GGG 4.GG	.	8B 8d 8g	.
.	.	.	8r	.
.	.	.	8r	.
.	4DD 4D	.	8BL 8f 8g	.
.	.	.	8B 8fn 8f#X	.
.	8GGG 8GG	.	8BJ 8fn 8g	.
=144	=144	=144	=144	=144
*	*^	*	*^	*
2.r	4EE-X 4E-X	4rEE	.	8a-X	4.c 4.f#X	.
.	.	.	.	4ee-X	.	.
.	8GGG 8GG	8rEE	.	.	.	.
.	4.F#X 4.c	8E-L	.	8a-L 8cc 8aa-X	4rc	.
.	.	8D	.	8b-X 8cc	.	.
.	.	8E-J	.	8a-J 8cc	8rc	.
*	*	*	*	*v	*v	*
=145	=145	=145	=145	=145	=145
2.r	4.G 4.c#X	4En	.	8anL 8cc#X 8aan	.
.	.	.	.	8bn 8cc#	.
.	.	8A	.	8aJ 8cc#	.
.	4EE 4E	4rEE	.	8c#XL 8g 8a	.
.	.	.	.	8c# 8gn 8g#X	.
.	8AAA 8AA	8rEE	.	8c#J 8gn 8a	.
=146	=146	=146	=146	=146	=146
*	*	*	*	*^	*
2.r	4FF 4F	4rEE	.	8b-X	4.d 4.a-X	.
.	.	.	.	4ff	.	.
.	8GGG 8GG	8rEE	.	.	.	.
.	4.A-X 4.d	8FL	.	8b-L 8dd 8bb-X	4rc	.
.	.	8E	.	8cc 8dd	.	.
.	.	8FJ	.	8b-J 8dd	8rc	.
*	*v	*v	*	*	*	*
*	*	*	*v	*v	*
=147	=147	=147	=147	=147
2.r	4F#X 4An 4d#X	.	8bnL 8dd#X 8bbn	.
.	.	.	8cc#X 8dd#	.
.	8GG 8G	.	8bJ 8dd#	.
.	8D-XL 8Fn 8d-X	.	8bL 8ff 8bb	.
.	8D- 8F 8d-	.	8b 8ff 8bb	.
.	8BJ 8e-X 8b	.	8a-XJ 8ff 8aa-X	.
=148	=148	=148	=148	=148
2.r	4Dn 4F#X 4dn	.	8ccL 8ff#X 8ccc	.
.	.	.	8cc 8ff# 8ccc	.
.	8GGG 8GG	.	8anJ 8ff# 8aan	.
.	8DL 8F# 8d	.	8ccL 8ff# 8ccc	.
.	8D 8F# 8d	.	8cc 8ff# 8ccc	.
.	8cJ 8en 8cc	.	8aJ 8ff# 8aa	.
=149	=149	=149	=149	=149
2.r	4E-X 4G 4e-X	.	8cc#XL 8gg 8ccc#X	.
.	.	.	8cc# 8gg 8ccc#	.
.	8GGG 8GG	.	8a#XJ 8gg 8aa#X	.
.	8E-L 8G 8e-	.	8cc#L 8gg 8ccc#	.
.	8E- 8G 8e-	.	8cc# 8gg 8ccc#	.
.	8c#XJ 8f 8cc#X	.	8a#J 8gg 8aa#	.
=150	=150	=150	=150	=150
2.r	4D 4G 4d	.	8ddL 8gg 8ddd	.
.	.	.	8dd 8gg 8ddd	.
.	8GGG 8GG	.	8bJ 8gg 8bb	.
.	4F 4B 4f	.	8dd#XL 8gg 8ddd#X	.
.	.	.	8dd# 8gg 8ddd#	.
.	8GGG 8GG	.	8bJ 8gg 8bb	.
=151	=151	=151	=151	=151
*	*^	*	*^	*
2.r	4CCC 4CC	4rEE	.	4.ee 4.gg 4.ccc 4.eee	4rc	.
*	*clefG2	*	*	*	*	*
.	8e	[8e	.	.	8rc	.
.	[4.dd	[4.B-X 4.e_	.	8gg#XL 8ggg#X	4.eee	.
.	.	.	.	8ggn 8gggn	.	.
.	.	.	.	8gg#XJ 8ggg#X	.	.
*	*	*	*	*v	*v	*
=152	=152	=152	=152	=152	=152
2.r	4dd]	4.B-] 4.e]	.	4aa 4eee 4aaa	.
.	8f#X	.	.	8cc 8ccc	.
.	4g	4E-X 4A 4e-X	.	4cc#X 4gg 4ccc#X	.
.	8g#X	8En 8B-X 8d	.	8dd 8gg#X 8ddd	.
=153	=153	=153	=153	=153	=153
[8qFF/ [8qC	.	.	.	.	.
2.FF] 2.C]	4.g#X 4.ee	8dL	.	[4.bb-X [4.eee [4.bbb-X	.
.	.	8c#X	.	.	.
.	.	[8dJ	.	.	.
.	4e 4g#	8dL]	.	4bb-] 4eee] 4bbb-]	.
.	.	8d-X	.	.	.
.	8f 8a	8cnJ	.	8aa 8fff 8aaa	.
=154	=154	=154	=154	=154	=154
*	*	*^	*	*	*
2.r	8ddL	4.f	4B/	.	4.aa 4.fff 4.aaa	.
.	8dd-X	.	.	.	.	.
.	8ccJ	.	8c/	.	.	.
.	4.raa	4rc	4e-X/	.	4.r	.
.	.	8rc	8d/	.	.	.
=155	=155	=155	=155	=155	=155	=155
*	*	*	*	*	*^	*
2.r	4raa	4rc	4.d-X/	.	4.raa	4.rc	.
.	8f	[8f	.	.	.	.	.
.	[4.ee-X	4.f_	[4.c-X/	.	8aaL 8aaa	4.fff	.
.	.	.	.	.	8aa-X 8aaa-X	.	.
.	.	.	.	.	8aanJ 8aaan	.	.
*	*	*	*	*	*v	*v	*
=156	=156	=156	=156	=156	=156	=156
2.r	4ee-]	4.f]	4.c-/]	.	4bb-X 4fff 4bbb-X	.
.	8g	.	.	.	8dd-X 8ddd-X	.
.	4a-X	4F-X 4B-X 4f-X	4.r	.	4ddn 4dddn	.
.	8an	8Fn 8Bn 8e-X	.	.	8ee-X 8eee-X	.
=157	=157	=157	=157	=157	=157	=157
[8qGG/ [8qF	.	.	.	.	.	.
*	*	*	*	*	*^	*
2.GG] 2.F]	4.ff	4.a	8e-X/L	.	[4.bb [4.bbb	[4.fff	.
.	.	.	8d/	.	.	.	.
.	.	.	[8e-/J	.	.	.	.
.	8aL	4.f	8e-/L]	.	8bbL] 8bbb]	4.fff]	.
.	8b-X	.	8d/	.	8bb-X 8bbb-X	.	.
.	8bnJ	.	8d-X/J	.	8aanJ 8aaan	.	.
=158	=158	=158	=158	=158	=158	=158	=158
2.r	40%3ccL	4.f	8c\L	.	8aa-XL 8aaa-X	4fff	.
.	40%3cc#X	.	.	.	.	.	.
.	.	.	8Bn\	.	8ggJ 8ggg	.	.
.	40%3ee	.	.	.	.	.	.
.	40%3ee-X	.	.	.	.	.	.
.	.	.	8d\J	.	8raa	8rc	.
.	40%3ddJ	.	.	.	.	.	.
.	4.raa	4f	4r	.	4.raa	4.rc	.
.	.	8f-X	8r	.	.	.	.
=159	=159	=159	=159	=159	=159	=159	=159
2.r	4raa	4rc	4.e-X\	.	4.raa	4.rc	.
.	8g	[8g	.	.	.	.	.
.	[4.ff	4.g_	[4.d-X\	.	8bbL 8bbb	4.ggg	.
.	.	.	.	.	8bb-X 8bbb-X	.	.
.	.	.	.	.	8bbnJ 8bbbn	.	.
*	*	*	*	*	*v	*v	*
=160	=160	=160	=160	=160	=160	=160
2.r	4ff]	4.g]	4.d-\]	.	4ccc 4cccc	.
.	8an	.	.	.	8ee-X 8eee-X	.
.	4b-X	4.rc	4G-X/ 4c 4g-X	.	4een 4eeen	.
.	8bn	.	8Gn/ 8d-X 8f	.	8ff 8fff	.
*	*	*v	*v	*	*	*
=161	=161	=161	=161	=161	=161
2.AA-X 2.E-X	4raa	4.rc	.	4.r	.
.	8b	.	.	.	.
.	[4.gg	[4.d-X [4.f	.	8bbL 8bbb	.
.	.	.	.	8bb-X 8bbb-X	.
.	.	.	.	8bbnJ 8bbbn	.
=162	=162	=162	=162	=162	=162
2.r	4gg]	4.d-] 4.f]	.	4bb 4bbb	.
.	8b	.	.	8ff 8fff	.
.	4b	4d-X 4g	.	8ffL 8fff	.
.	.	.	.	8ff-X 8fff-X	.
.	8cc	8c 8a-X	.	8ee-XJ 8eee-X	.
=163	=163	=163	=163	=163	=163
.	.	[8qD\ [8qc	.	.	.
2.r	[4.aa-X	2.D] 2.c] 2.a-X 2.cc	.	4.ccc 4.cccc	.
.	8aa-]	.	.	4ee-X 4eee-X	.
.	4cc	.	.	.	.
.	.	.	.	8een 8eeen	.
=164	=164	=164	=164	=164	=164
2.r	8cc#X	2.G 2.B 2.f	.	8aa 8aaa	.
.	[4aa	.	.	[4ccc#X	.
.	8aaL]	.	.	4ccc#]	.
.	8ee	.	.	.	.
.	8ddJ	.	.	8ddd	.
=165	=165	=165	=165	=165	=165
2.r	4dd	2.c 2.e	.	[4.gg [4.ggg	.
.	[8ccn	.	.	.	.
.	8cc]	.	.	8ggL] 8ggg]	.
.	8raa	.	.	8f#X	.
.	8raa	.	.	8gJ	.
*	*v	*v	*	*	*
=166	=166	=166	=166	=166
2.r	2.r	.	8g#XL	.
.	.	.	8a	.
.	.	.	8b-XJ	.
.	.	.	8bnL	.
.	.	.	8cc	.
.	.	.	8cc#XJ	.
*	*clefF4	*	*	*
=167	=167	=167	=167	=167
*	*	*	*^	*
2.r	4.BB-X 4.B-X	.	4dd	16ddLL	.
.	.	.	.	16g-X	.
.	.	.	.	16e	.
.	.	.	.	16g-J	.
.	.	.	8cc#X	8cc#J	.
.	4.GG-X 4.G-X	.	4dd	16ddLL	.
.	.	.	.	16b-X	.
.	.	.	.	16e	.
.	.	.	.	16b-J	.
.	.	.	8cc#	8cc#J	.
=168	=168	=168	=168	=168	=168
*	*	*	*	*^	*
2.r	4.GGn 4.Gn	.	8raa	8rc	8r	.
.	.	.	8ddL	4b-X	8e\L	.
.	.	.	8ee-XJ	.	8e-X\J	.
.	4.GG#X 4.G#X	.	8raa	8rc	8d\L	.
.	.	.	8eenL	4b-	8d-X\	.
.	.	.	8cccJ	.	8c\J	.
*	*	*	*	*v	*v	*
=169	=169	=169	=169	=169	=169
2.r	4.C 4.c	.	4ee	16eeLL	.
.	.	.	.	16g#X	.
.	.	.	.	16g-X	.
.	.	.	.	16g#XJ	.
.	.	.	8dd#X	8dd#J	.
.	4.GG#X 4.G#X	.	4ee	16eeLL	.
.	.	.	.	16cc	.
.	.	.	.	16g-X	.
.	.	.	.	16ccJ	.
.	.	.	8dd#	8dd#J	.
=170	=170	=170	=170	=170	=170
*	*	*	*	*^	*
2.r	2.AA 2.A	.	8raa	8rc	8r	.
.	.	.	8eenL	4cc	8g-X\L	.
.	.	.	8ffJ	.	8f\J	.
.	.	.	8gg#XL	4cc	8e\L	.
.	.	.	8aa	.	8f\J	.
.	.	.	8cccJ	8rc	8r	.
*	*	*	*v	*v	*v	*
=171	=171	=171	=171	=171
2.r	8r	.	8ddd#XL	.
.	8DnL	.	8eee	.
.	8cJ	.	[8ccJ [8ee [8ff#X	.
.	8aL	.	8ccL] 8ee] 8ff#]	.
.	8g	.	8cc 8ee 8gg	.
.	8f#XJ	.	8ccJ 8ee 8gg#X	.
=172	=172	=172	=172	=172
2.r	8fnL	.	8ccL 8ee 8gg#X	.
.	8GGn	.	8cc 8ee 8aa	.
.	8FJ	.	[8fJ [8a [8cc#X	.
.	8eL	.	8fL] 8a] 8cc#]	.
.	8d	.	8f 8a 8dd	.
.	8cnJ	.	8fJ 8a 8dd#X	.
=173	=173	=173	=173	=173
2.r	8r	.	8fL 8a 8dd#X	.
.	8GGnL	.	8e 8g#X 8ee	.
.	8FJ	.	[8eJ [8g#	.
.	8cL	.	8eL] 8g#]	.
.	8B	.	8d#X 8a	.
.	8B-XJ	.	8dnJ 8a#X	.
=174	=174	=174	=174	=174
2.r	8AL	.	4d-X 4f 4b	.
.	8A-X	.	.	.
.	8GJ	.	8c 8e 8cc	.
.	8C	.	8gL 8cc 8ee	.
.	8r	.	8cc 8ee 8gg	.
.	8r	.	8eeJ 8gg 8ccc	.
=175	=175	=175	=175	=175
2.r	8r	.	8ggL 8ccc 8ddd#X	.
.	8DnL	.	8ff#X 8ccc 8eee	.
.	8cJ	.	[8ccJ [8ee [8ff#	.
.	8aL	.	8ccL] 8ee] 8ff#]	.
.	8g	.	8cc 8ee 8gg	.
.	8f#XJ	.	8ccJ 8ee 8gg#X	.
=176	=176	=176	=176	=176
2.r	8fnL	.	8ccL 8ee 8gg#X	.
.	8GGn	.	8cc 8ee 8aa	.
.	8FJ	.	[8fJ [8a [8cc#X	.
.	8eL	.	8fL] 8a] 8cc#]	.
.	8d	.	8f 8a 8dd	.
.	8cnJ	.	8fJ 8a 8dd#X	.
=177	=177	=177	=177	=177
2.r	8r	.	8fL 8a 8dd#X	.
.	8GGnL	.	8e 8g#X 8ee	.
.	8FJ	.	[8eJ [8g#	.
.	8cL	.	8eL] 8g#]	.
.	8B	.	8e-X 8a	.
.	8B-XJ	.	8dJ 8b-X	.
=178	=178	=178	=178	=178
*	*	*	*^	*
2.r	4A	.	8bnL	4.d 4.f	.
.	.	.	8b-X	.	.
.	8A-X	.	8bnJ	.	.
.	4.G	.	8eeL	4.f 4.b	.
.	.	.	8dd	.	.
.	.	.	8dd-XJ	.	.
*	*	*	*v	*v	*
=179	=179	=179	=179	=179
*	*^	*	*	*
2.r	4.rc	4rEE	.	8e 8cc	.
.	.	.	.	8r	.
.	.	8E	.	8r	.
*	*clefG2	*	*	*	*
.	8gL	8cL	.	4.r	.
.	8f#X	8EJ	.	.	.
.	8gJ	8rc	.	.	.
=180	=180	=180	=180	=180	=180
*	*	*	*	*^	*
2.r	[8a-X	4c	.	8ff#XL 8fff#X	2.ccc	.
.	4a-_ [4ee	.	.	8ffn 8fffn	.	.
.	.	8E	.	[8ff#XJ [8fff#X	.	.
.	4a-] 4ee]	8cL	.	8ff#L] 8fff#]	.	.
.	.	8EJ	.	8ffn 8fffn	.	.
.	8a-	8rc	.	8ff#XJ 8fff#X	.	.
*	*	*	*	*v	*v	*
=181	=181	=181	=181	=181	=181
2.r	4g	8cL	.	8ggL 8ccc 8ggg	.
.	.	8EJ	.	8ccJ 8ccc	.
.	8f#X	8rc	.	8r	.
.	4g	8cL	.	4.r	.
.	.	8EJ	.	.	.
.	8f#	8rc	.	.	.
=182	=182	=182	=182	=182	=182
*	*	*	*	*^	*
2.r	[4.b	8c#XL	.	8ggnL 8gggn	2.ccc#X	.
.	.	8EJ	.	8ff#X 8fff#X	.	.
.	.	8rc	.	[8ggJ [8ggg	.	.
.	4b]	8c#L	.	8ggL] 8ggg]	.	.
.	.	8EJ	.	8ff# 8fff#	.	.
.	8a	8rc	.	8ggJ 8ggg	.	.
*	*	*	*	*v	*v	*
=183	=183	=183	=183	=183	=183
2.r	8b--L	8d-XL	.	8ggL 8ggg	.
.	8g	8FJ	.	8bb-- 8bbb--	.
.	8a-XJ	8rc	.	8aa-XJ 8aaa-X	.
.	4.a- 4.cc	8d-L	.	4.r	.
.	.	8FJ	.	.	.
.	.	8rc	.	.	.
=184	=184	=184	=184	=184	=184
*	*	*	*	*^	*
2.r	4G 4dn 4f 4cc	4rc	.	4.raa	4.rc	.
.	8bn	8rc	.	.	.	.
.	4.b 4.aa-X	8d-XL	.	8bbnL 8bbbn	4.fff	.
.	.	8dn	.	8bb-X 8bbb-X	.	.
.	.	8d#XJ	.	8bbnJ 8bbbn	.	.
*	*	*	*	*v	*v	*
=185	=185	=185	=185	=185	=185
2.r	8aa-XL	4.e 4.cc	.	2.ccc 2.eee 2.cccc	.
.	8gg	.	.	.	.
.	8eeJ	.	.	.	.
.	32%3ccL	16%3e 16%3cc	.	.	.
.	32%3f#X	.	.	.	.
.	32%3g	16%3g	.	.	.
.	32%3g#XJ	.	.	.	.
=186	=186	=186	=186	=186	=186
.	8qb/	.	.	.	.
2.r	2.a	4.e 4.f#X 4.cc	.	32cccLLL	.
.	.	.	.	32ddd#X	.
.	.	.	.	32eee	.
.	.	.	.	32aaa	.
.	.	.	.	32cccc	.
.	.	.	.	32aa	.
.	.	.	.	32ccc	.
.	.	.	.	32ddd#	.
.	.	.	.	32eee	.
.	.	.	.	32aaa	.
.	.	.	.	32ee	.
.	.	.	.	32aaJJJ	.
.	.	4rc	.	32cccLLL	.
.	.	.	.	32ddd#	.
.	.	.	.	32eee	.
.	.	.	.	32cc	.
.	.	.	.	32dd#X	.
.	.	.	.	32ee	.
.	.	.	.	32aa	.
.	.	.	.	32ccc	.
.	.	8rc	.	32aa	.
.	.	.	.	32ee	.
.	.	.	.	32cc	.
.	.	.	.	32eJJJ	.
*	*v	*v	*	*	*
*	*clefF4	*	*	*
=187	=187	=187	=187	=187
2.r	40%3gL	.	4r	.
.	40%3c	.	.	.
.	40%3E	.	.	.
.	40%3G	.	.	.
.	.	.	8r	.
.	40%3CJ	.	.	.
.	40%3EEL	.	24ccLL 24gg	.
.	.	.	24gJJ	.
.	40%3C	.	.	.
.	.	.	24r	.
.	.	.	24f#XLL 24cc	.
.	40%3G	.	.	.
.	.	.	24ff#XJJ	.
.	.	.	24r	.
.	40%3E	.	.	.
.	.	.	24ccLL 24gg	.
.	.	.	24gJJ	.
.	40%3cJ	.	.	.
.	.	.	24r	.
=188	=188	=188	=188	=188
2.r	40%3f#XL	.	24a-XLL 24cc	.
.	.	.	24aa-XJJ	.
.	40%3c	.	.	.
.	.	.	24r	.
.	.	.	24aa-LL 24eee	.
.	40%3E	.	.	.
.	.	.	24eeJJ	.
.	.	.	24r	.
.	40%3F#X	.	.	.
.	.	.	8r	.
.	40%3CJ	.	.	.
.	40%3EEL	.	4r	.
.	40%3C	.	.	.
.	40%3F#	.	.	.
.	40%3E	.	.	.
.	.	.	24a-LL 24cc	.
.	.	.	24aa-JJ	.
.	40%3cJ	.	.	.
.	.	.	24r	.
=189	=189	=189	=189	=189
2.r	40%3gL	.	24ccLL 24gg	.
.	.	.	24gJJ	.
.	40%3c	.	.	.
.	.	.	24r	.
.	.	.	8r	.
.	40%3E	.	.	.
.	40%3G	.	.	.
.	.	.	24f#XLL 24cc	.
.	.	.	24ff#XJJ	.
.	40%3CJ	.	.	.
.	.	.	24r	.
.	40%3EEL	.	24ccLL 24gg	.
.	.	.	24gJJ	.
.	40%3C	.	.	.
.	.	.	24r	.
.	.	.	8r	.
.	40%3G	.	.	.
.	40%3E	.	.	.
.	.	.	24g#XLL 24cc	.
.	.	.	24gg#XJJ	.
.	40%3cJ	.	.	.
.	.	.	24r	.
=190	=190	=190	=190	=190
2.r	40%3gnL	.	24cc#XLL 24bb	.
.	.	.	24bJJ	.
.	40%3c#X	.	.	.
.	.	.	24r	.
.	.	.	8r	.
.	40%3E	.	.	.
.	40%3G	.	.	.
.	.	.	8r	.
.	40%3C#XJ	.	.	.
.	40%3EEL	.	4r	.
.	40%3C#	.	.	.
.	40%3G	.	.	.
.	40%3E	.	.	.
.	.	.	24aLL 24cc#	.
.	.	.	24aaJJ	.
.	40%3c#J	.	.	.
.	.	.	24r	.
=191	=191	=191	=191	=191
2.r	40%3a-XL	.	24dd-XLL 24aa-X	.
.	.	.	24a-XJJ	.
.	40%3d-X	.	.	.
.	.	.	24r	.
.	.	.	8r	.
.	40%3F	.	.	.
.	40%3A-X	.	.	.
.	.	.	24gLL 24dd-	.
.	.	.	24ggJJ	.
.	40%3D-XJ	.	.	.
.	.	.	24r	.
.	40%3FFL	.	24dd-LL 24aa-	.
.	.	.	24a-JJ	.
.	40%3D-	.	.	.
.	.	.	24r	.
.	.	.	8r	.
.	40%3A-	.	.	.
.	40%3F	.	.	.
.	.	.	24anLL 24dd-	.
.	.	.	24aanJJ	.
.	40%3d-J	.	.	.
.	.	.	24r	.
=192	=192	=192	=192	=192
2.r	40%3a-XL	.	24ddnLL 24ccc	.
.	.	.	24ccJJ	.
.	40%3dn	.	.	.
.	.	.	24r	.
.	.	.	8r	.
.	40%3F	.	.	.
.	40%3A-X	.	.	.
.	.	.	8r	.
.	40%3DnJ	.	.	.
.	40%3FFL	.	4r	.
.	40%3D	.	.	.
.	40%3A-	.	.	.
.	40%3F	.	.	.
.	.	.	24b-XLL 24dd	.
.	.	.	24bb-XJJ	.
.	40%3dJ	.	.	.
.	.	.	24r	.
=193	=193	=193	=193	=193
2.r	40%3g#XL	.	24ddLL 24bb-X	.
.	.	.	24b-XJJ	.
.	40%3d	.	.	.
.	.	.	24r	.
.	.	.	24g#XLL 24dd	.
.	40%3F#X	.	.	.
.	.	.	24gg#XJJ	.
.	.	.	24r	.
.	40%3An	.	.	.
.	.	.	24ddLL 24aa	.
.	.	.	24aJJ	.
.	40%3DJ	.	.	.
.	.	.	24r	.
.	40%3FF#XL	.	[4.cc [4.dd [4.ccc	.
.	40%3D	.	.	.
.	40%3A	.	.	.
.	40%3F#	.	.	.
.	40%3dJ	.	.	.
=194	=194	=194	=194	=194
2.r	40%3gnL	.	4cc] 4dd] 4ccc]	.
.	40%3fn	.	.	.
.	40%3G	.	.	.
.	40%3G	.	.	.
.	.	.	24bLL 24dd	.
.	.	.	24bbJJ	.
.	40%3FnJ	.	.	.
.	.	.	24r	.
.	40%3GGL	.	24bbLL 24aaa	.
.	.	.	24aaJJ	.
.	40%3F	.	.	.
.	.	.	24r	.
.	.	.	24eeLL 24bb	.
.	40%3G	.	.	.
.	.	.	24eeeJJ	.
.	.	.	24r	.
.	40%3G	.	.	.
.	.	.	24bbLL 24ddd	.
.	.	.	24ddJJ	.
.	40%3fJ	.	.	.
.	.	.	24r	.
=195	=195	=195	=195	=195
2.r	40%3gL	.	24ddLL 24bb	.
.	.	.	24dddJJ	.
.	40%3e	.	.	.
.	.	.	24r	.
.	.	.	8r	.
.	40%3G	.	.	.
.	40%3E	.	.	.
.	.	.	24ccLL 24ff#X	.
.	.	.	24f#XJJ	.
.	40%3GGJ	.	.	.
.	.	.	24r	.
.	8CC	.	8r	.
.	8r	.	24gLL 24cc	.
.	.	.	24ggJJ	.
.	.	.	24r	.
.	8r	.	24ccLL 24gg#X	.
.	.	.	24g#XJJ	.
.	.	.	24r	.
=196	=196	=196	=196	=196
2.r	2.r	.	8r	.
.	.	.	24aLL 24ee	.
.	.	.	24aaJJ	.
.	.	.	24r	.
.	.	.	24eeLL 24bb-X	.
.	.	.	24b-XJJ	.
.	.	.	24r	.
.	.	.	24bnLL 24ee	.
.	.	.	24bbnJJ	.
.	.	.	24r	.
.	.	.	24eeLL 24ccc	.
.	.	.	24ccJJ	.
.	.	.	24r	.
.	.	.	24cc#XLL 24ee	.
.	.	.	24ccc#XJJ	.
.	.	.	24r	.
=197	=197	=197	=197	=197
*	*	*	*^	*
2.r	16GGG-XLL	.	24eeLL 24dddn	4rc	.
.	.	.	24ddJJ	.	.
.	16GG-X	.	.	.	.
.	.	.	24r	.	.
.	16E	.	8raa	.	.
.	16B-X	.	.	.	.
.	16e	.	8raa	8rc	.
.	16b-XJJ	.	.	.	.
.	4.r	.	[4f [4ff	4.dd	.
.	.	.	16fLL] 16ff]	.	.
.	.	.	16g-XJJ 16gg-X	.	.
*	*	*	*v	*v	*
=198	=198	=198	=198	=198
2.r	16CCCnLL	.	24cc#XLL 24aa	.
.	.	.	24aJJ	.
.	16CC	.	.	.
.	.	.	24r	.
.	16BB-X	.	8r	.
.	16E	.	.	.
.	16B-X	.	8r	.
.	16eJJ	.	.	.
.	4.r	.	4.c#X 4.cc#X	.
=199	=199	=199	=199	=199
*	*	*	*^	*
2.r	16GGG-XLL	.	24eLL 24dd	4rc	.
.	.	.	24dJJ	.	.
.	16GG-X	.	.	.	.
.	.	.	24r	.	.
.	16E	.	8raa	.	.
.	16B-X	.	.	.	.
.	16e	.	8raa	8rc	.
.	16b-XJJ	.	.	.	.
.	4.r	.	[4F [4f	4.d	.
.	.	.	16FLL] 16f]	.	.
.	.	.	16G-XJJ 16g-X	.	.
*	*	*	*v	*v	*
=200	=200	=200	=200	=200
2.r	16CCCnLL	.	24c#XLL 24a	.
.	.	.	24AJJ	.
.	16CC	.	.	.
.	.	.	24r	.
.	16BB-X	.	8r	.
.	16E	.	.	.
.	16B-X	.	8r	.
.	16eJJ	.	.	.
.	4.r	.	8GL 8g	.
.	.	.	8cn 8cc	.
.	.	.	8eJ 8ee	.
=201	=201	=201	=201	=201
*	*	*	*^	*
2.r	16FFFLL	.	24ccLL 24aa	4rc	.
.	.	.	24aJJ	.	.
.	16FF	.	.	.	.
.	.	.	24r	.	.
.	16E	.	8raa	.	.
.	16A	.	.	.	.
.	16e	.	8raa	8rc	.
.	16aJJ	.	.	.	.
.	4r	.	[4B [4b	4.a	.
.	8r	.	16BLL] 16b]	.	.
.	.	.	16cJJ 16cc	.	.
*	*	*	*v	*v	*
=202	=202	=202	=202	=202
2.r	16FFF#XLL	.	24g#XLL 24ee	.
.	.	.	24eJJ	.
.	16FF#X	.	.	.
.	.	.	24r	.
.	16E	.	8r	.
.	16c	.	.	.
.	16e	.	8r	.
.	16ccJJ	.	.	.
.	4.r	.	4.G#X 4.g#	.
=203	=203	=203	=203	=203
2.r	16GGGnLL	.	24g#XLL 24ee	.
.	.	.	24eJJ	.
.	16GG	.	.	.
.	.	.	24r	.
.	16F	.	8r	.
.	16B	.	.	.
.	16f	.	8G#X 8g#	.
.	16BJJ	.	.	.
.	4.r	.	[4.e [4.ee	.
=204	=204	=204	=204	=204
2.r	2.r	.	4.e] 4.ee]	.
.	.	.	4d 4dd	.
.	.	.	8c#X 8cc#X	.
=205	=205	=205	=205	=205
*	*^	*	*^	*
2.r	8rc	8FL 8B	.	4a 4aa	4.ff	.
.	8rc	8GGn	.	.	.	.
.	8c#X	8FJ 8B	.	8g#X 8gg#X	.	.
.	4.c# [4.b	4.F 4.B	.	4a 4aa	4.ff	.
.	.	.	.	8g# 8gg#	.	.
=206	=206	=206	=206	=206	=206	=206
*	*^	*^	*	*	*	*
2.r	4b]	8rEE	8r	4GGGn\ 4GGn	.	8raa	8rc	.
.	.	8BL	[4F\	.	.	8aL 8aa	4ff	.
.	8c#X	8B-XJ	.	8r	.	8b-XJ 8bb-X	.	.
.	4d	8AL	4F\]	4.r	.	8raa	4.rc	.
.	.	8A-X	.	.	.	8bnL 8ff 8bbn	.	.
.	8d#X	8GJ	8F\	.	.	8ggJ 8bb 8ggg	.	.
*	*	*v	*v	*v	*	*	*	*
=207	=207	=207	=207	=207	=207	=207
2.r	8rc	8FL 8B	.	4b 4bb	4.ff	.
.	8rc	8GG	.	.	.	.
.	8d#X	8FJ 8B	.	8a#X 8aa#X	.	.
.	4.d# [4.an	[4.F [4.B	.	4b 4bb	4.ff	.
.	.	.	.	8a#X 8aa#X	.	.
*	*	*	*	*v	*v	*
=208	=208	=208	=208	=208	=208
2.r	4a]	4GGG 4GG 4F] 4B]	.	4r	.
.	8d#X	8F 8B	.	8b 8bb	.
.	4d#	4F 4B	.	4b 4bb	.
.	8e	8E 8c	.	8cc 8ccc	.
=209	=209	=209	=209	=209	=209
*	*	*	*	*^	*
2.r	8rc	8EL 8A	.	4cc#X 4ccc#X	4.ee 4.aa	.
.	8rc	8GG	.	.	.	.
.	8e	[8EJ [8A	.	8b#X 8bb#X	.	.
.	4.a	4.E] 4.A]	.	4cc# 4ccc#	4.ee 4.aa	.
.	.	.	.	8b# 8bb#	.	.
*	*v	*v	*	*	*	*
=210	=210	=210	=210	=210	=210
2.r	4GGG 4GG	.	8raa	8rc	.
.	.	.	8cc#XL 8ccc#X	8aaL	.
.	8E 8A 8e	.	[8dd#XJ [8ddd#X	[8aaJ	.
.	4.A 4.e 4.a	.	8dd#L] 8ddd#]	4.aa]	.
.	.	.	8ee 8eee	.	.
.	.	.	8aaJ 8aaa	.	.
=211	=211	=211	=211	=211	=211
*	*^	*	*	*	*
2.r	8rc	8EL 8A#X	.	4cc#X 4ccc#X	4.ee 4.aa#X	.
.	8rc	8FF#X	.	.	.	.
.	8e	[8EJ [8A#	.	8b#X 8bb#X	.	.
.	4.a#X	4.E] 4.A#]	.	4cc# 4ccc#	4.ee 4.aa#	.
.	.	.	.	8b# 8bb#	.	.
*	*v	*v	*	*	*	*
=212	=212	=212	=212	=212	=212
2.r	4FFF#X 4FF#X	.	8raa	8rc	.
.	.	.	8b#XL 8bb#X	8aa#XL	.
.	8E 8A#X 8e	.	[8cc#XJ [8ccc#X	[8aa#J	.
.	4.A# 4.e 4.a#X	.	8cc#L] 8ccc#]	4.aa#]	.
.	.	.	8b# 8bb#	.	.
.	.	.	8cc#J 8ccc#	.	.
=213	=213	=213	=213	=213	=213
2.r	8r	.	4dd 4ddd	4.ee 4.bb-X	.
.	8EL 8B-X 8e	.	.	.	.
.	8GGG-XJ 8GG-X	.	8cc#X 8ccc#X	.	.
.	8r	.	4dd 4ddd	4.ee 4.bb-	.
.	8EL 8B- 8e	.	.	.	.
.	8CCCnJ 8CCn	.	8cc#X 8ccc#X	.	.
*	*	*	*v	*v	*
=214	=214	=214	=214	=214
2.r	8r	.	8r	.
.	8EL 8B-X 8e	.	8ddL 8bb-X 8ddd	.
.	8GGG-XJ 8GG-X	.	[8ee-XJ [8bb- [8eee-X	.
.	8r	.	8ee-L] 8bb-] 8eee-]	.
.	8EL 8B- 8e	.	8een 8bb- 8eeen	.
.	8CCCJ 8CC	.	8cccJ 8cccc	.
=215	=215	=215	=215	=215
*	*	*	*^	*
2.r	8r	.	4ee 4eee	4.gg-X 4.ccc	.
.	8G-XL 8c 8g-X	.	.	.	.
.	8AAA-XJ 8AA-X	.	8dd#X 8ddd#X	.	.
.	8r	.	4ee 4eee	4.gg- 4.ccc	.
.	8G-L 8c 8g-	.	.	.	.
.	8CCCJ 8CC	.	8dd# 8ddd#	.	.
*	*	*	*v	*v	*
=216	=216	=216	=216	=216
2.r	8r	.	8r	.
.	8FL 8c 8f	.	8eeL 8ccc 8eee	.
.	8AAAnJ 8AAn	.	8ffJ 8ccc 8fff	.
.	8r	.	8gg#XL 8fff 8ggg#X	.
.	8FL 8c 8f	.	8aa 8fff 8aaa	.
.	8CCCJ 8CC	.	8cccJ 8fff 8cccc	.
=217	=217	=217	=217	=217
2.r	4F 4G 4B 4f	.	8ddd#XL 8ggg 8bbb 8dddd#X	.
.	.	.	8eee 8ggg 8bbb 8eeee	.
.	8CCC 8CC	.	8eee-XJ 8ggg 8bbb 8eeee-X	.
.	4.GG 4.G	.	8gggL 8gggg	.
.	.	.	8dddn 8ggg 8bbb 8ddddn	.
.	.	.	8ddd-XJ 8ggg 8bbb 8dddd-X	.
=218	=218	=218	=218	=218
2.r	4F 4A 4c 4f	.	8ddd-XL 8fff 8aaa 8dddd-X	.
.	.	.	8fff 8ffff	.
.	8CCC 8CC	.	8bbJ 8fff 8aaa 8bbb	.
.	4.AA 4.A	.	8cccL 8fff 8aaa 8cccc	.
.	.	.	8ccc#X 8fff 8aaa 8cccc#X	.
.	.	.	8dddnJ 8fff 8aaa 8ddddn	.
=219	=219	=219	=219	=219
2.r	4F 4G 4B 4f	.	8ddd#XL 8ggg 8bbb 8dddd#X	.
.	.	.	8eee 8ggg 8bbb 8eeee	.
.	8CCC 8CC	.	8eee-XJ 8ggg 8bbb 8eeee-X	.
.	4.GG 4.G	.	8gggL 8gggg	.
.	.	.	8dddn 8ggg 8bbb 8ddddn	.
.	.	.	8ddd-XJ 8ggg 8bbb 8dddd-X	.
=220	=220	=220	=220	=220
2.r	4F 4A 4c 4f	.	8ddd-XL 8fff 8aaa 8dddd-X	.
.	.	.	8fff 8ffff	.
.	8CCC 8CC	.	8bbJ 8fff 8aaa 8bbb	.
.	4.AA 4.A	.	8cccL 8fff 8aaa 8cccc	.
.	.	.	8dddn 8fff 8aaa 8ddddn	.
.	.	.	8ddd#XJ 8fff 8aaa 8dddd#X	.
*	*clefG2	*	*	*
=221	=221	=221	=221	=221
*	*	*	*^	*
2.r	16%3f 16%3cc 16%3ff	.	8eeeL 8eeee	4aaa 4cccc	.
.	.	.	8ddd#X 8dddd#X	.	.
*	*clefF4	*	*	*	*
.	16%3CCC 16%3CC	.	.	.	.
.	.	.	[8eeeJ [8eeee	[8aaa [8cccc	.
.	16%3AAA 16%3AA	.	8eeeL] 8eeee]	4.aaa] 4.cccc]	.
.	.	.	8ddd# 8dddd#	.	.
.	16%3CC 16%3C	.	.	.	.
.	.	.	8eeeJ 8eeee	.	.
=222	=222	=222	=222	=222	=222
2.r	16%3AA 16%3A	.	8eeeL 8eeee	4aaa 4cccc	.
.	.	.	8ddd#X 8dddd#X	.	.
.	16%3C 16%3c	.	.	.	.
.	.	.	[8eeeJ [8eeee	[8aaa [8cccc	.
.	16%3A 16%3a	.	8eeeL] 8eeee]	4.aaa] 4.cccc]	.
.	.	.	8ddd# 8dddd#	.	.
*	*clefG2	*	*	*	*
.	16%3f 16%3cc 16%3ff	.	.	.	.
.	.	.	8eeeJ 8eeee	.	.
=223	=223	=223	=223	=223	=223
2.r	16%3f#X 16%3cc 16%3ff#X	.	8eeeL 8eeee	4aaa-X 4cccc	.
.	.	.	8ddd#X 8dddd#X	.	.
*	*clefF4	*	*	*	*
.	16%3CCC 16%3CC	.	.	.	.
.	.	.	[8eeeJ [8eeee	[8aaa- [8cccc	.
.	16%3AAA-X 16%3AA-X	.	8eeeL] 8eeee]	4.aaa-] 4.cccc]	.
.	.	.	8ddd# 8dddd#	.	.
.	16%3CC 16%3C	.	.	.	.
.	.	.	8eeeJ 8eeee	.	.
=224	=224	=224	=224	=224	=224
2.r	16%3AA-X 16%3A-X	.	8eeeL 8eeee	4aaa-X 4cccc	.
.	.	.	8ddd#X 8dddd#X	.	.
.	16%3C 16%3c	.	.	.	.
.	.	.	[8eeeJ [8eeee	[8aaa- [8cccc	.
.	16%3A- 16%3a-X	.	8eeeL] 8eeee]	4.aaa-] 4.cccc]	.
.	.	.	8ddd# 8dddd#	.	.
.	16%3r	.	.	.	.
.	.	.	8eeeJ 8eeee	.	.
*	*	*	*v	*v	*
=225	=225	=225	=225	=225
2.r	8CCCL 8CC	.	8r	.
*	*clefG2	*	*	*
.	8a-X 8aa-X	.	8ff#XL 8ccc 8eee 8fff#X	.
.	8eJ 8ee	.	8ggJ 8ccc 8eee 8ggg	.
.	8c 8cc	.	8aa-X 8ccc 8eee 8aaa-X	.
.	4A-X 4a-	.	4cc 4ee 4ff#X 4ccc	.
=226	=226	=226	=226	=226
2.r	4A-X 4a-X	.	4cc 4ee 4ff#X 4ccc	.
.	[8A- [8a-	.	[8cc [8ee [8ff# [8ccc	.
.	8A-] 8a-]	.	8cc] 8ee] 8ff#] 8ccc]	.
.	4A- 4a-	.	4cc 4ee 4ff# 4ccc	.
*	*clefF4	*	*	*
=227	=227	=227	=227	=227
2.r	8CCCL 8CC	.	8r	.
.	8A-X 8a-X	.	8f#XL 8cc 8ee 8ff#X	.
.	8EJ 8e	.	8gJ 8cc 8ee 8gg	.
.	8C 8c	.	8a-X 8cc 8ee 8aa-X	.
.	4AA-X 4A-	.	4c 4e 4f# 4cc	.
=228	=228	=228	=228	=228
2.r	4AA-X 4A-X	.	4c 4e 4f#X 4cc	.
.	[8AA- [8A-	.	[8c [8e [8f# [8cc	.
.	8AA-] 8A-]	.	8c] 8e] 8f#] 8cc]	.
.	4AA- 4A-	.	4c 4e 4f# 4cc	.
*	*	*	*clefF4	*
=229	=229	=229	=229	=229
2.r	8CCCL 8CC	.	8r	.
.	8AA-X 8A-X	.	8F#XL 8c 8e 8f#X	.
.	8EEJ 8E	.	8GJ 8c 8e 8g	.
.	8CCL 8C	.	8A-XL 8c 8e 8a-X	.
.	8AAA-X 8AA-	.	8C 8E 8F# 8c	.
.	8AAA-J 8AA-	.	8CJ 8E 8F# 8c	.
=230	=230	=230	=230	=230
2.r	8AAA-XL 8AA-X	.	8CL 8E 8F#X 8c	.
.	8AAA- 8AA-	.	8E 8F# 8c 8e	.
.	8AAA-J 8AA-	.	8EJ 8F# 8c 8e	.
.	8AAA-L 8AA-	.	8EL 8F# 8c 8e	.
.	8AAA- 8AA-	.	8F# 8c 8e 8f#X	.
.	8AAA-J 8AA-	.	8F#J 8c 8e 8f#	.
=231	=231	=231	=231	=231
2.r	8AAA-XL 8AA-X	.	8F#XL 8c 8e 8f#X	.
*	*	*	*clefG2	*
.	8AA- 8F#X	.	8c 8e 8f#X 8cc	.
.	8AA-J 8F#	.	8cJ 8e 8f# 8cc	.
.	8AA-L 8F#	.	8cL 8e 8f# 8cc	.
.	8AA- 8F# 8c	.	8e 8f# 8cc 8ee	.
.	8AA-J 8F# 8c	.	8eJ 8f# 8cc 8ee	.
=232	=232	=232	=232	=232
2.r	8AA-XL 8F#X 8c	.	8eL 8f#X 8cc 8ee	.
.	8AA- 8F# 8c	.	8f# 8cc 8ee 8ff#X	.
.	8AA-J 8F# 8c	.	8f#J 8cc 8ee 8ff#	.
.	8AA-L 8F# 8c	.	8f#L 8cc 8ee 8ff#	.
.	8AA- 8F# 8c	.	8cc 8ee 8ff# 8ccc	.
.	8AA-J 8F# 8c	.	8ccJ 8ee 8ff# 8ccc	.
=233	=233	=233	=233	=233
.	[8qCC/ [8qGG	.	.	.
2.r	8CC] 8GG] 8E 8G 8c 8e	.	8cc 8ee 8gg 8ccc	.
.	8r	.	8r	.
.	8r	.	8r	.
.	4r	.	4r	.
.	8r	.	8r	.
=234	=234	=234	=234	=234
2.r	[2.CCC [2.CC	.	[2.C	.
=235	=235	=235	=235	=235
2.r	2.CCC] 2.CC]	.	2.C]	.
=236	=236	=236	=236	=236
2.r	2.CCC 2.CC	.	2.C	.
==	==	==	==	==
*-	*-	*-	*-	*-
!!!system-decoration: {(*)}
!!!ENC: Bryan Jacob Bell
!!!END: November 2021 to April 2022
!!!PED: Günter Philipp
!!!PTL: Ausgewählte Klavierwerke (Edition Peters)
